Urotrophine/SUSTech_Robot_Modeling_and_Control_Final_Project/reports/force_control_metrics.csv
time,phase,grasp_lock_active,contact_force_n,inserted_depth_m,peg_x_m,peg_y_m,peg_z_m,peg_hole_xy_error_m,q1_rad,q2_rad,q3_rad,q4_rad,q5_m,q6_rad,q3_abs_rad,q4_abs_rad,q6_turns,q_tracking_error,q_tracking_error_without_q6,q34_tracking_error,q6_tracking_error_rad,q6_speed_rad_s,ctrl_joint1,ctrl_joint2,ctrl_joint3,ctrl_joint4,ctrl_joint5,ctrl_joint6
0.002,open gripper to maximum,0,0.0,0.08,-0.3505427002397946,-0.32873105613095743,0.05496076,0.3031777685447047,0.0,0.0,0.0,0.0,0.0,0.0,0.0,0.0,0.0,0.0,0.0,0.0,0.0,0.0,0.0,0.0,-9.261928139816188,2.0906296682166037e-05,-33.736266267840875,-1.641090884604672e-11
0.004,open gripper to maximum,0,0.000272380267629429,0.08,-0.3505427276481174,-0.32873098412876345,0.054970404187347645,0.30317783821044086,0.0,0.0,0.0,0.0,0.0,0.0,0.0,0.0,0.0,0.0,0.0,0.0,0.0,0.0,0.0,0.0,-9.261928139816188,2.0906296682166037e-05,-33.736266267840875,-1.641090884604672e-11
0.006,open gripper to maximum,0,0.00011479836927987955,0.08,-0.35054273969628846,-0.32873095256014284,0.05497762614692929,0.303177868752247,0.0,0.0,0.0,0.0,0.0,0.0,0.0,0.0,0.0,0.0,0.0,0.0,0.0,0.0,0.0,0.0,-9.261928139816188,2.0906296682166037e-05,-33.736266267840875,-1.641090884604672e-11
0.008,open gripper to maximum,0,0.00011611072969498274,0.08,-0.35054275173145416,-0.32873092097486667,0.054983055887317916,0.30317789931166567,0.0,0.0,0.0,0.0,0.0,0.0,0.0,0.0,0.0,0.0,0.0,0.0,0.0,0.0,0.0,0.0,-9.261928139816188,2.0906296682166037e-05,-33.736266267840875,-1.641090884604672e-11
0.01,open gripper to maximum,0,0.00011739826325971998,0.08,-0.350542763937686,-0.32873088893690505,0.054987137747587865,0.30317793030917795,0.0,0.0,0.0,0.0,0.0,0.0,0.0,0.0,0.0,0.0,0.0,0.0,0.0,0.0,0.0,0.0,-9.261928139816188,2.0906296682166037e-05,-33.736266267840875,-1.641090884604672e-11
0.012,open gripper to maximum,0,0.0001183758054608989,0.08,-0.35054277626429264,-0.3287308565805715,0.054990205736964316,0.30317796161479493,0.0,0.0,0.0,0.0,0.0,0.0,0.0,0.0,0.0,0.0,0.0,0.0,0.0,0.0,0.0,0.0,-9.261928139816188,2.0906296682166037e-05,-33.736266267840875,-1.641090884604672e-11
0.014,open gripper to maximum,0,0.00011910981877322964,0.08,-0.3505427886731155,-0.32873082400594644,0.05499251101218327,0.30317799313168864,0.0,0.0,0.0,0.0,0.0,0.0,0.0,0.0,0.0,0.0,0.0,0.0,0.0,0.0,0.0,0.0,-9.261928139816188,2.0906296682166037e-05,-33.736266267840875,-1.641090884604672e-11
0.016,open gripper to maximum,0,0.00011965808894276695,0.08,-0.3505428011373392,-0.32873079128334465,0.05499424247408184,0.3031780247918298,0.0,0.0,0.0,0.0,0.0,0.0,0.0,0.0,0.0,0.0,0.0,0.0,0.0,0.0,0.0,0.0,-9.261928139816188,2.0906296682166037e-05,-33.736266267840875,-1.641090884604672e-11
0.018000000000000002,open gripper to maximum,0,0.00012006529535778449,0.08,-0.35054281363792805,-0.3287307584626884,0.05499554222011871,0.30317805654691865,0.0,0.0,0.0,0.0,0.0,0.0,0.0,0.0,0.0,0.0,0.0,0.0,0.0,0.0,0.0,0.0,-9.261928139816188,2.0906296682166037e-05,-33.736266267840875,-1.641090884604672e-11
0.020000000000000004,open gripper to maximum,0,0.00012036565023325975,0.08,-0.35054282616122356,-0.32873072557980526,0.054996517150508004,0.3031780883622917,0.0,0.0,0.0,0.0,0.0,0.0,0.0,0.0,0.0,0.0,0.0,0.0,0.0,0.0,0.0,0.0,-9.261928139816188,2.0906296682166037e-05,-33.736266267840875,-1.641090884604672e-11
0.022000000000000006,open gripper to maximum,0,0.0001205852187524676,0.08,-0.3505428386973351,-0.3287306926606461,0.05499724769123026,0.3031781202128413,0.0,0.0,0.0,0.0,0.0,0.0,0.0,0.0,0.0,0.0,0.0,0.0,0.0,0.0,0.0,0.0,-9.261928139816188,2.0906296682166037e-05,-33.736266267840875,-1.641090884604672e-11
0.024000000000000007,open gripper to maximum,0,0.00012074379097411343,0.08,-0.35054285123904616,-0.328730659724152,0.05499779435279881,0.3031781520802413,0.0,0.0,0.0,0.0,0.0,0.0,0.0,0.0,0.0,0.0,0.0,0.0,0.0,0.0,0.0,0.0,-9.261928139816188,2.0906296682166037e-05,-33.736266267840875,-1.641090884604672e-11
0.02600000000000001,open gripper to maximum,0,0.00012085635602201934,0.08,-0.3505428637810594,-0.3287306267842328,0.054998202662989173,0.30317818395103346,0.0,0.0,0.0,0.0,0.0,0.0,0.0,0.0,0.0,0.0,0.0,0.0,0.0,0.0,0.0,0.0,-9.261928139816188,2.0906296682166037e-05,-33.736266267840875,-1.641090884604672e-11
0.02800000000000001,open gripper to maximum,0,0.0001209342468051564,0.08,-0.35054287631946834,-0.3287305938511526,0.05499850687724356,0.3031782158152868,0.0,0.0,0.0,0.0,0.0,0.0,0.0,0.0,0.0,0.0,0.0,0.0,0.0,0.0,0.0,0.0,-9.261928139816188,2.0906296682166037e-05,-33.736266267840875,-1.641090884604672e-11
0.030000000000000013,open gripper to maximum,0,0.00012098602082638524,0.08,-0.3505428888513819,-0.3287305609325128,0.054998732769925014,0.3031782476656463,0.0,0.0,0.0,0.0,0.0,0.0,0.0,0.0,0.0,0.0,0.0,0.0,0.0,0.0,0.0,0.0,-9.261928139816188,2.0906296682166037e-05,-33.736266267840875,-1.641090884604672e-11
0.032000000000000015,open gripper to maximum,0,0.00012101813372492528,0.08,-0.3505429013746556,-0.3287305280339574,0.05499889973425504,0.3031782794966509,0.0,0.0,0.0,0.0,0.0,0.0,0.0,0.0,0.0,0.0,0.0,0.0,0.0,0.0,0.0,0.0,-9.261928139816188,2.0906296682166037e-05,-33.736266267840875,-1.641090884604672e-11
0.034000000000000016,open gripper to maximum,0,0.00012103545208582331,0.08,-0.3505429138876965,-0.32873049515968455,0.05499902236222491,0.3031783113042381,0.0,0.0,0.0,0.0,0.0,0.0,0.0,0.0,0.0,0.0,0.0,0.0,0.0,0.0,0.0,0.0,-9.261928139816188,2.0906296682166037e-05,-33.736266267840875,-1.641090884604672e-11
0.03600000000000002,open gripper to maximum,0,0.0001210416426481774,0.08,-0.35054292638932055,-0.3287304623128197,0.054999111633295274,0.30317834308538355,0.0,0.0,0.0,0.0,0.0,0.0,0.0,0.0,0.0,0.0,0.0,0.0,0.0,0.0,0.0,0.0,-9.261928139816188,2.0906296682166037e-05,-33.736266267840875,-1.641090884604672e-11
0.03800000000000002,open gripper to maximum,0,0.00012126620736026474,0.08,-0.35054293825550237,-0.32873042917233153,0.054999175604493016,0.30317837520843743,0.0,0.0,0.0,0.0,0.0,0.0,0.0,0.0,0.0,0.0,0.0,0.0,0.0,0.0,0.0,0.0,-9.261928139816188,2.0906296682166037e-05,-33.736266267840875,-1.641090884604672e-11
0.04000000000000002,open gripper to maximum,0,0.00012126212471114667,0.08,-0.3505429500976102,-0.32873039605770576,0.05499922072577309,0.3031784073075697,0.0,0.0,0.0,0.0,0.0,0.0,0.0,0.0,0.0,0.0,0.0,0.0,0.0,0.0,0.0,0.0,-9.261928139816188,2.0906296682166037e-05,-33.736266267840875,-1.641090884604672e-11
0.04200000000000002,open gripper to maximum,0,0.0001212486895710703,0.08,-0.3505429619265993,-0.3287303629760292,0.05499925166690271,0.3031784393748672,0.0,0.0,0.0,0.0,0.0,0.0,0.0,0.0,0.0,0.0,0.0,0.0,0.0,0.0,0.0,0.0,-9.261928139816188,2.0906296682166037e-05,-33.736266267840875,-1.641090884604672e-11
0.044000000000000025,open gripper to maximum,0,0.00012123164284230156,0.08,-0.3505429737423375,-0.3287303299283619,0.054999271941726394,0.30317847140928333,0.0,0.0,0.0,0.0,0.0,0.0,0.0,0.0,0.0,0.0,0.0,0.0,0.0,0.0,0.0,0.0,-9.261928139816188,2.0906296682166037e-05,-33.736266267840875,-1.641090884604672e-11
0.04600000000000003,open gripper to maximum,0,0.00012121193727190598,0.08,-0.3505429855445815,-0.32873029691541694,0.05499928419419054,0.30317850341012587,0.0,0.0,0.0,0.0,0.0,0.0,0.0,0.0,0.0,0.0,0.0,0.0,0.0,0.0,0.0,0.0,-9.261928139816188,2.0906296682166037e-05,-33.736266267840875,-1.641090884604672e-11
0.04800000000000003,open gripper to maximum,0,0.00012119024133313013,0.08,-0.35054299733315186,-0.3287302639377175,0.05499929041369815,0.3031785353768872,0.0,0.0,0.0,0.0,0.0,0.0,0.0,0.0,0.0,0.0,0.0,0.0,0.0,0.0,0.0,0.0,-9.261928139816188,2.0906296682166037e-05,-33.736266267840875,-1.641090884604672e-11
0.05000000000000003,open gripper to maximum,0,0.00012116705716682989,0.08,-0.35054300910791947,-0.3287302309956452,0.054999292097149266,0.3031785673091968,0.0,0.0,0.0,0.0,0.0,0.0,0.0,0.0,0.0,0.0,0.0,0.0,0.0,0.0,0.0,0.0,-9.261928139816188,2.0906296682166037e-05,-33.736266267840875,-1.641090884604672e-11
0.05200000000000003,open gripper to maximum,0,0.00010872062462217662,0.08,-0.3505429940440251,-0.3287302457827669,0.05499941131869707,0.30317855373189767,0.0,0.0,0.0,0.0,0.0,0.0,0.0,0.0,0.0,0.0,0.0,0.0,0.0,0.0,0.0,0.0,-9.261928139816188,2.0906296682166037e-05,-33.736266267840875,-1.641090884604672e-11
0.054000000000000034,open gripper to maximum,0,0.0001088018246863502,0.08,-0.3505429788605464,-0.32873026146837914,0.054999499722977234,0.30317853926805444,0.0,0.0,0.0,0.0,0.0,0.0,0.0,0.0,0.0,0.0,0.0,0.0,0.0,0.0,0.0,0.0,-9.261928139816188,2.0906296682166037e-05,-33.736266267840875,-1.641090884604672e-11
0.056000000000000036,open gripper to maximum,0,0.00012015426426814623,0.08,-0.3505429901249666,-0.3287302294681069,0.05499944987058318,0.30317857030087186,0.0,0.0,0.0,0.0,0.0,0.0,0.0,0.0,0.0,0.0,0.0,0.0,0.0,0.0,0.0,0.0,-9.261928139816188,2.0906296682166037e-05,-33.736266267840875,-1.641090884604672e-11
0.05800000000000004,open gripper to maximum,0,0.00010871333629542444,0.08,-0.35054297566493986,-0.32873024447463406,0.05499952930399847,0.30317855645810454,0.0,0.0,0.0,0.0,0.0,0.0,0.0,0.0,0.0,0.0,0.0,0.0,0.0,0.0,0.0,0.0,-9.261928139816188,2.0906296682166037e-05,-33.736266267840875,-1.641090884604672e-11
0.06000000000000004,open gripper to maximum,0,0.00012014905713397797,0.08,-0.35054298694593033,-0.32873021248174716,0.0549994708170801,0.3031785874822767,0.0,0.0,0.0,0.0,0.0,0.0,0.0,0.0,0.0,0.0,0.0,0.0,0.0,0.0,0.0,0.0,-9.261928139816188,2.0906296682166037e-05,-33.736266267840875,-1.641090884604672e-11
0.06200000000000004,open gripper to maximum,0,0.00010878207873437887,0.08,-0.35054297276653185,-0.32873022759623083,0.054999545581759283,0.30317857351016425,0.0,0.0,0.0,0.0,0.0,0.0,0.0,0.0,0.0,0.0,0.0,0.0,0.0,0.0,0.0,0.0,-9.261928139816188,2.0906296682166037e-05,-33.736266267840875,-1.641090884604672e-11
0.06400000000000004,open gripper to maximum,0,0.00010760737841850201,0.08,-0.3505429728072415,-0.32873021281087067,0.05499953071467271,0.3031785882480545,0.0,0.0,0.0,0.0,0.0,0.0,0.0,0.0,0.0,0.0,0.0,0.0,0.0,0.0,0.0,0.0,-9.261928139816188,2.0906296682166037e-05,-33.736266267840875,-1.641090884604672e-11
0.06600000000000004,open gripper to maximum,0,0.00010820759149430662,0.08,-0.3505429732124036,-0.3287301974720623,0.05499951903989106,0.30317860350953607,0.0,0.0,0.0,0.0,0.0,0.0,0.0,0.0,0.0,0.0,0.0,0.0,0.0,0.0,0.0,0.0,-9.261928139816188,2.0906296682166037e-05,-33.736266267840875,-1.641090884604672e-11
0.06800000000000005,open gripper to maximum,0,0.0001081841296924128,0.08,-0.3505429737041344,-0.32873018216269645,0.054999509725061076,0.30317861873496554,0.0,0.0,0.0,0.0,0.0,0.0,0.0,0.0,0.0,0.0,0.0,0.0,0.0,0.0,0.0,0.0,-9.261928139816188,2.0906296682166037e-05,-33.736266267840875,-1.641090884604672e-11
0.07000000000000005,open gripper to maximum,0,0.00010815550176667923,0.08,-0.3505429742730442,-0.32873016689157686,0.05499950218822472,0.3031786339162921,0.0,0.0,0.0,0.0,0.0,0.0,0.0,0.0,0.0,0.0,0.0,0.0,0.0,0.0,0.0,0.0,-9.261928139816188,2.0906296682166037e-05,-33.736266267840875,-1.641090884604672e-11
0.07200000000000005,open gripper to maximum,0,0.00010812820240976409,0.08,-0.35054297491506653,-0.3287301516574028,0.05499949599133678,0.30317864905512704,0.0,0.0,0.0,0.0,0.0,0.0,0.0,0.0,0.0,0.0,0.0,0.0,0.0,0.0,0.0,0.0,-9.261928139816188,2.0906296682166037e-05,-33.736266267840875,-1.641090884604672e-11
0.07400000000000005,open gripper to maximum,0,0.00010810216725783783,0.08,-0.3505429756264755,-0.32873013645882426,0.05499949080467962,0.30317866415310485,0.0,0.0,0.0,0.0,0.0,0.0,0.0,0.0,0.0,0.0,0.0,0.0,0.0,0.0,0.0,0.0,-9.261928139816188,2.0906296682166037e-05,-33.736266267840875,-1.641090884604672e-11
0.07600000000000005,open gripper to maximum,0,0.00010807724415131477,0.08,-0.3505429764037744,-0.32873012129460694,0.05499948638005514,0.3031786792117264,0.0,0.0,0.0,0.0,0.0,0.0,0.0,0.0,0.0,0.0,0.0,0.0,0.0,0.0,0.0,0.0,-9.261928139816188,2.0906296682166037e-05,-33.736266267840875,-1.641090884604672e-11
0.07800000000000006,open gripper to maximum,0,0.00010805330510874747,0.08,-0.3505429772436776,-0.328730106163622,0.05499948253061254,0.30317869423237154,0.0,0.0,0.0,0.0,0.0,0.0,0.0,0.0,0.0,0.0,0.0,0.0,0.0,0.0,0.0,0.0,-9.261928139816188,2.0906296682166037e-05,-33.736266267840875,-1.641090884604672e-11
0.08000000000000006,open gripper to maximum,0,0.00010803024300679801,0.08,-0.35054297814309565,-0.3287300910648348,0.05499947911566918,0.30317870921631085,0.0,0.0,0.0,0.0,0.0,0.0,0.0,0.0,0.0,0.0,0.0,0.0,0.0,0.0,0.0,0.0,-9.261928139816188,2.0906296682166037e-05,-33.736266267840875,-1.641090884604672e-11
0.08200000000000006,open gripper to maximum,0,0.00010800796740616879,0.08,-0.35054297909912147,-0.3287300759972946,0.054999476029288515,0.303178724164717,0.0,0.0,0.0,0.0,0.0,0.0,0.0,0.0,0.0,0.0,0.0,0.0,0.0,0.0,0.0,0.0,-9.261928139816188,2.0906296682166037e-05,-33.736266267840875,-1.641090884604672e-11
0.08400000000000006,open gripper to maximum,0,0.00010798640128457866,0.08,-0.35054298010901785,-0.328730060960126,0.054999473191685036,0.3031787390786746,0.0,0.0,0.0,0.0,0.0,0.0,0.0,0.0,0.0,0.0,0.0,0.0,0.0,0.0,0.0,0.0,-9.261928139816188,2.0906296682166037e-05,-33.736266267840875,-1.641090884604672e-11
0.08600000000000006,open gripper to maximum,0,0.00010796547849329074,0.08,-0.35054298117020577,-0.32873004595252164,0.05499947054275641,0.30317875395918825,0.0,0.0,0.0,0.0,0.0,0.0,0.0,0.0,0.0,0.0,0.0,0.0,0.0,0.0,0.0,0.0,-9.261928139816188,2.0906296682166037e-05,-33.736266267840875,-1.641090884604672e-11
0.08800000000000006,open gripper to maximum,0,0.00010794514176576632,0.08,-0.35054298228025355,-0.32873003097373504,0.05499946803721628,0.3031787688071902,0.0,0.0,0.0,0.0,0.0,0.0,0.0,0.0,0.0,0.0,0.0,0.0,0.0,0.0,0.0,0.0,-9.261928139816188,2.0906296682166037e-05,-33.736266267840875,-1.641090884604672e-11
0.09000000000000007,open gripper to maximum,0,0.0001092420280966588,0.08,-0.3505429696632462,-0.32873004705825826,0.05499955028842134,0.3031787537470628,0.0,0.0,0.0,0.0,0.0,0.0,0.0,0.0,0.0,0.0,0.0,0.0,0.0,0.0,0.0,0.0,-9.261928139816188,2.0906296682166037e-05,-33.736266267840875,-1.641090884604672e-11
0.09200000000000007,open gripper to maximum,0,0.0001092278187167298,0.08,-0.3505429570469036,-0.3287300635229909,0.05499961102652222,0.30317873830781494,0.0,0.0,0.0,0.0,0.0,0.0,0.0,0.0,0.0,0.0,0.0,0.0,0.0,0.0,0.0,0.0,-9.261928139816188,2.0906296682166037e-05,-33.736266267840875,-1.641090884604672e-11
0.09400000000000007,open gripper to maximum,0,0.00010925924221878318,0.08,-0.35054294467455255,-0.3287300800294947,0.05499965563714186,0.30317872280804403,0.0,0.0,0.0,0.0,0.0,0.0,0.0,0.0,0.0,0.0,0.0,0.0,0.0,0.0,0.0,0.0,-9.261928139816188,2.0906296682166037e-05,-33.736266267840875,-1.641090884604672e-11
0.09600000000000007,open gripper to maximum,0,0.00013497551748831578,0.08,-0.3505429326420212,-0.3287301283694806,0.05499979342829595,0.30317867554392314,0.0,0.0,0.0,0.0,0.0,0.0,0.0,0.0,0.0,0.0,0.0,0.0,0.0,0.0,0.0,0.0,-9.261928139816188,2.0906296682166037e-05,-33.736266267840875,-1.641090884604672e-11
0.09800000000000007,open gripper to maximum,0,0.000134674213215034,0.08,-0.35054291913772645,-0.3287301766531161,0.05499988972207881,0.30317862844985566,0.0,0.0,0.0,0.0,0.0,0.0,0.0,0.0,0.0,0.0,0.0,0.0,0.0,0.0,0.0,0.0,-9.261928139816188,2.0906296682166037e-05,-33.736266267840875,-1.641090884604672e-11
0.10000000000000007,open gripper to maximum,0,0.0002698177696167179,0.07999972014318453,-0.35054301172621843,-0.3287302767560213,0.05500027985681547,0.3031785214834122,0.0,0.0,0.0,0.0,0.0,0.0,0.0,0.0,0.0,0.0,0.0,0.0,0.0,0.0,0.0,0.0,-9.261928139816188,2.0906296682166037e-05,-33.736266267840875,-1.641090884604672e-11
0.10200000000000008,open gripper to maximum,0,0.0002565830129269091,0.079999434627906,-0.350543073371452,-0.32873036720558374,0.055000565372094,0.30317842653547816,0.0,0.0,0.0,0.0,0.0,0.0,0.0,0.0,0.0,0.0,0.0,0.0,0.0,0.0,0.0,0.0,-9.261928139816188,2.0906296682166037e-05,-33.736266267840875,-1.641090884604672e-11
0.10400000000000008,open gripper to maximum,0,0.0002461766113616768,0.07999922888822497,-0.35054310856385124,-0.32873044569014515,0.05500077111177504,0.3031783455633426,0.0,0.0,0.0,0.0,0.0,0.0,0.0,0.0,0.0,0.0,0.0,0.0,0.0,0.0,0.0,0.0,-9.261928139816188,2.0906296682166037e-05,-33.736266267840875,-1.641090884604672e-11
0.10600000000000008,open gripper to maximum,0,0.0,0.08,-0.35054314375625045,-0.32873052417470655,0.05496173685145607,0.3031782645912098,0.0,0.0,0.0,0.0,0.0,0.0,0.0,0.0,0.0,0.0,0.0,0.0,0.0,0.0,0.0,0.0,-9.261928139816188,2.0906296682166037e-05,-33.736266267840875,-1.641090884604672e-11
0.10800000000000008,open gripper to maximum,0,0.0002688730826726962,0.08,-0.3505431705792534,-0.3287304550628913,0.05497108354400102,0.3031783314205697,0.0,0.0,0.0,0.0,0.0,0.0,0.0,0.0,0.0,0.0,0.0,0.0,0.0,0.0,0.0,0.0,-9.261928139816188,2.0906296682166037e-05,-33.736266267840875,-1.641090884604672e-11
0.11000000000000008,open gripper to maximum,0,0.00011456941688408009,0.08,-0.3505431821732715,-0.3287304239929162,0.054978082423175444,0.3031783615003857,0.0,0.0,0.0,0.0,0.0,0.0,0.0,0.0,0.0,0.0,0.0,0.0,0.0,0.0,0.0,0.0,-9.261928139816188,2.0906296682166037e-05,-33.736266267840875,-1.641090884604672e-11
0.11200000000000009,open gripper to maximum,0,0.0001158535457796532,0.08,-0.35054319373603343,-0.3287303929061149,0.05498334446812064,0.3031783915993964,0.0,0.0,0.0,0.0,0.0,0.0,0.0,0.0,0.0,0.0,0.0,0.0,0.0,0.0,0.0,0.0,-9.261928139816188,2.0906296682166037e-05,-33.736266267840875,-1.641090884604672e-11
0.11400000000000009,open gripper to maximum,0,0.00011709784093140835,0.08,-0.3505432054559056,-0.3287303613926994,0.05498730025604713,0.3031784221115876,0.0,0.0,0.0,0.0,0.0,0.0,0.0,0.0,0.0,0.0,0.0,0.0,0.0,0.0,0.0,0.0,-9.261928139816188,2.0906296682166037e-05,-33.736266267840875,-1.641090884604672e-11
0.11600000000000009,open gripper to maximum,0,0.00011077488378844548,0.08,-0.35054318389523353,-0.32873037203677224,0.05499039434380759,0.30317841316756206,0.0,0.0,0.0,0.0,0.0,0.0,0.0,0.0,0.0,0.0,0.0,0.0,0.0,0.0,0.0,0.0,-9.261928139816188,2.0906296682166037e-05,-33.736266267840875,-1.641090884604672e-11
0.11800000000000009,open gripper to maximum,0,0.00011123090760439914,0.08,-0.35054316199743507,-0.32873038384718456,0.054992720514650484,0.30317840308677824,0.0,0.0,0.0,0.0,0.0,0.0,0.0,0.0,0.0,0.0,0.0,0.0,0.0,0.0,0.0,0.0,-9.261928139816188,2.0906296682166037e-05,-33.736266267840875,-1.641090884604672e-11
0.12000000000000009,open gripper to maximum,0,0.00011838815918124152,0.08,-0.35054317337264534,-0.3287303524502692,0.05499435450172021,0.3031784335094834,0.0,0.0,0.0,0.0,0.0,0.0,0.0,0.0,0.0,0.0,0.0,0.0,0.0,0.0,0.0,0.0,-9.261928139816188,2.0906296682166037e-05,-33.736266267840875,-1.641090884604672e-11
0.1220000000000001,open gripper to maximum,0,0.00011179963087521438,0.08,-0.35054315231100214,-0.3287303640300208,0.05499570016987336,0.3031784235939764,0.0,0.0,0.0,0.0,0.0,0.0,0.0,0.0,0.0,0.0,0.0,0.0,0.0,0.0,0.0,0.0,-9.261928139816188,2.0906296682166037e-05,-33.736266267840875,-1.641090884604672e-11
0.1240000000000001,open gripper to maximum,0,0.00011910831254793905,0.08,-0.35054316379235834,-0.3287303324355415,0.05499659502946079,0.3031784542054405,0.0,0.0,0.0,0.0,0.0,0.0,0.0,0.0,0.0,0.0,0.0,0.0,0.0,0.0,0.0,0.0,-9.261928139816188,2.0906296682166037e-05,-33.736266267840875,-1.641090884604672e-11
0.12600000000000008,open gripper to maximum,0,0.00011195849614839017,0.08,-0.3505431431538911,-0.32873034443207394,0.05499738601705741,0.3031784438416615,0.0,0.0,0.0,0.0,0.0,0.0,0.0,0.0,0.0,0.0,0.0,0.0,0.0,0.0,0.0,0.0,-9.261928139816188,2.0906296682166037e-05,-33.736266267840875,-1.641090884604672e-11
0.12800000000000009,open gripper to maximum,0,0.00011972839629127101,0.08,-0.35054315407521647,-0.3287303124270443,0.05499786216726034,0.3031784749057744,0.0,0.0,0.0,0.0,0.0,0.0,0.0,0.0,0.0,0.0,0.0,0.0,0.0,0.0,0.0,0.0,-9.261928139816188,2.0906296682166037e-05,-33.736266267840875,-1.641090884604672e-11
0.1300000000000001,open gripper to maximum,0,0.00011189873006381525,0.08,-0.35054313390078556,-0.32873032479315595,0.05499833951508132,0.3031784641376222,0.0,0.0,0.0,0.0,0.0,0.0,0.0,0.0,0.0,0.0,0.0,0.0,0.0,0.0,0.0,0.0,-9.261928139816188,2.0906296682166037e-05,-33.736266267840875,-1.641090884604672e-11
0.1320000000000001,open gripper to maximum,0,0.000111727378083703,0.08,-0.35054311356394213,-0.32873033810196445,0.05499869707594151,0.30317845244216624,0.0,0.0,0.0,0.0,0.0,0.0,0.0,0.0,0.0,0.0,0.0,0.0,0.0,0.0,0.0,0.0,-9.261928139816188,2.0906296682166037e-05,-33.736266267840875,-1.641090884604672e-11
0.1340000000000001,open gripper to maximum,0,0.00012004194708277543,0.08,-0.35054312455817843,-0.32873030603281417,0.054998848857401396,0.30317848356456517,0.0,0.0,0.0,0.0,0.0,0.0,0.0,0.0,0.0,0.0,0.0,0.0,0.0,0.0,0.0,0.0,-9.261928139816188,2.0906296682166037e-05,-33.736266267840875,-1.641090884604672e-11
0.1360000000000001,open gripper to maximum,0,0.00011154073550210131,0.08,-0.350543105192007,-0.3287303188977659,0.054999080552595565,0.3031784722365352,0.0,0.0,0.0,0.0,0.0,0.0,0.0,0.0,0.0,0.0,0.0,0.0,0.0,0.0,0.0,0.0,-9.261928139816188,2.0906296682166037e-05,-33.736266267840875,-1.641090884604672e-11
0.1380000000000001,open gripper to maximum,0,0.00012012189978655612,0.08,-0.3505431162219921,-0.32873028681783006,0.05499913603059427,0.3031785033669212,0.0,0.0,0.0,0.0,0.0,0.0,0.0,0.0,0.0,0.0,0.0,0.0,0.0,0.0,0.0,0.0,-9.261928139816188,2.0906296682166037e-05,-33.736266267840875,-1.641090884604672e-11
0.1400000000000001,open gripper to maximum,0,0.00011127673808440564,0.08,-0.35054309733547306,-0.3287302999711835,0.054999296834963456,0.30317849171424377,0.0,0.0,0.0,0.0,0.0,0.0,0.0,0.0,0.0,0.0,0.0,0.0,0.0,0.0,0.0,0.0,-9.261928139816188,2.0906296682166037e-05,-33.736266267840875,-1.641090884604672e-11
0.1420000000000001,open gripper to maximum,0,0.00011102389286627565,0.08,-0.35054307831447473,-0.3287303140476715,0.05499941630807168,0.30317847915160495,0.0,0.0,0.0,0.0,0.0,0.0,0.0,0.0,0.0,0.0,0.0,0.0,0.0,0.0,0.0,0.0,-9.261928139816188,2.0906296682166037e-05,-33.736266267840875,-1.641090884604672e-11
0.1440000000000001,open gripper to maximum,0,0.00012019342112405908,0.08,-0.3505430893911561,-0.3287302819686064,0.054999388946432,0.3031785102775088,0.0,0.0,0.0,0.0,0.0,0.0,0.0,0.0,0.0,0.0,0.0,0.0,0.0,0.0,0.0,0.0,-9.261928139816188,2.0906296682166037e-05,-33.736266267840875,-1.641090884604672e-11
0.1460000000000001,open gripper to maximum,0,0.00011078394515752569,0.08,-0.3505430712986134,-0.3287302955198613,0.054999485957371946,0.3031784981666944,0.0,0.0,0.0,0.0,0.0,0.0,0.0,0.0,0.0,0.0,0.0,0.0,0.0,0.0,0.0,0.0,-9.261928139816188,2.0906296682166037e-05,-33.736266267840875,-1.641090884604672e-11
0.1480000000000001,open gripper to maximum,0,0.00011051546514171728,0.08,-0.35054305308371514,-0.3287303099866544,0.05499955748126106,0.303178485152554,0.0,0.0,0.0,0.0,0.0,0.0,0.0,0.0,0.0,0.0,0.0,0.0,0.0,0.0,0.0,0.0,-9.261928139816188,2.0906296682166037e-05,-33.736266267840875,-1.641090884604672e-11
0.1500000000000001,open gripper to maximum,0,0.00012022583247898853,0.08,-0.35054306420845094,-0.32873027790767473,0.05499949547722668,0.30317851627465364,0.0,0.0,0.0,0.0,0.0,0.0,0.0,0.0,0.0,0.0,0.0,0.0,0.0,0.0,0.0,0.0,-9.261928139816188,2.0906296682166037e-05,-33.736266267840875,-1.641090884604672e-11
0.1520000000000001,open gripper to maximum,0,0.00011027605786421735,0.08,-0.3505430468911802,-0.32873029181091595,0.05499956504361567,0.3031785037529267,0.0,0.0,0.0,0.0,0.0,0.0,0.0,0.0,0.0,0.0,0.0,0.0,0.0,0.0,0.0,0.0,-9.261928139816188,2.0906296682166037e-05,-33.736266267840875,-1.641090884604672e-11
0.1540000000000001,open gripper to maximum,0,0.000120213317626724,0.08,-0.35054305803869185,-0.3287302597439125,0.05499949983620076,0.30317853486132357,0.0,0.0,0.0,0.0,0.0,0.0,0.0,0.0,0.0,0.0,0.0,0.0,0.0,0.0,0.0,0.0,-9.261928139816188,2.0906296682166037e-05,-33.736266267840875,-1.641090884604672e-11
0.1560000000000001,open gripper to maximum,0,0.00011000097171025126,0.08,-0.35054304113700097,-0.32873027384594683,0.05499956868039925,0.3031785221092463,0.0,0.0,0.0,0.0,0.0,0.0,0.0,0.0,0.0,0.0,0.0,0.0,0.0,0.0,0.0,0.0,-9.261928139816188,2.0906296682166037e-05,-33.736266267840875,-1.641090884604672e-11
0.1580000000000001,open gripper to maximum,0,0.00010802880161264,0.08,-0.3505430395417438,-0.3287302584933337,0.054999550085655435,0.3031785375392642,0.0,0.0,0.0,0.0,0.0,0.0,0.0,0.0,0.0,0.0,0.0,0.0,0.0,0.0,0.0,0.0,-9.261928139816188,2.0906296682166037e-05,-33.736266267840875,-1.641090884604672e-11
0.16000000000000011,open gripper to maximum,0,0.00010859821582295867,0.08,-0.35054303838277434,-0.32873024262443806,0.05499953555992089,0.3031785534502615,0.0,0.0,0.0,0.0,0.0,0.0,0.0,0.0,0.0,0.0,0.0,0.0,0.0,0.0,0.0,0.0,-9.261928139816188,2.0906296682166037e-05,-33.736266267840875,-1.641090884604672e-11
0.16200000000000012,open gripper to maximum,0,0.00010945551511820187,0.08,-0.35054302207988963,-0.32873025733333705,0.054999595240098405,0.30317854004681005,0.0,0.0,0.0,0.0,0.0,0.0,0.0,0.0,0.0,0.0,0.0,0.0,0.0,0.0,0.0,0.0,-9.261928139816188,2.0906296682166037e-05,-33.736266267840875,-1.641090884604672e-11
0.16400000000000012,open gripper to maximum,0,0.00010789239483858569,0.08,-0.3505430209626677,-0.32873024217333596,0.054999569366184824,0.3031785552478077,0.0,0.0,0.0,0.0,0.0,0.0,0.0,0.0,0.0,0.0,0.0,0.0,0.0,0.0,0.0,0.0,-9.261928139816188,2.0906296682166037e-05,-33.736266267840875,-1.641090884604672e-11
0.16600000000000012,open gripper to maximum,0,0.00010847399356171038,0.08,-0.35054302026438766,-0.32873022647988315,0.05499954937948662,0.3031785709482444,0.0,0.0,0.0,0.0,0.0,0.0,0.0,0.0,0.0,0.0,0.0,0.0,0.0,0.0,0.0,0.0,-9.261928139816188,2.0906296682166037e-05,-33.736266267840875,-1.641090884604672e-11
0.16800000000000012,open gripper to maximum,0,0.00010843481704508282,0.08,-0.35054301969103513,-0.3287302108348378,0.054999533782665214,0.30317858659075314,0.0,0.0,0.0,0.0,0.0,0.0,0.0,0.0,0.0,0.0,0.0,0.0,0.0,0.0,0.0,0.0,-9.261928139816188,2.0906296682166037e-05,-33.736266267840875,-1.641090884604672e-11
0.17000000000000012,open gripper to maximum,0,0.00010839196684798978,0.08,-0.3505430192312997,-0.3287301952455535,0.054999521493004994,0.3031786021688773,0.0,0.0,0.0,0.0,0.0,0.0,0.0,0.0,0.0,0.0,0.0,0.0,0.0,0.0,0.0,0.0,-9.261928139816188,2.0906296682166037e-05,-33.736266267840875,-1.641090884604672e-11
0.17200000000000013,open gripper to maximum,0,0.00010835173720153676,0.08,-0.35054301887952555,-0.3287301797094056,0.05499951169553227,0.30317861768567145,0.0,0.0,0.0,0.0,0.0,0.0,0.0,0.0,0.0,0.0,0.0,0.0,0.0,0.0,0.0,0.0,-9.261928139816188,2.0906296682166037e-05,-33.736266267840875,-1.641090884604672e-11
0.17400000000000013,open gripper to maximum,0,0.00010831389524329278,0.08,-0.3505430186304737,-0.3287301642238441,0.054999503776786876,0.30317863314408316,0.0,0.0,0.0,0.0,0.0,0.0,0.0,0.0,0.0,0.0,0.0,0.0,0.0,0.0,0.0,0.0,-9.261928139816188,2.0906296682166037e-05,-33.736266267840875,-1.641090884604672e-11
0.17600000000000013,open gripper to maximum,0,0.00010827814955923665,0.08,-0.3505430184792039,-0.3287301487865453,0.054999497274955796,0.3031786485468115,0.0,0.0,0.0,0.0,0.0,0.0,0.0,0.0,0.0,0.0,0.0,0.0,0.0,0.0,0.0,0.0,-9.261928139816188,2.0906296682166037e-05,-33.736266267840875,-1.641090884604672e-11
0.17800000000000013,open gripper to maximum,0,0.00010824425615235158,0.08,-0.3505430184210541,-0.32873013339538887,0.054999491842349965,0.30317866389633097,0.0,0.0,0.0,0.0,0.0,0.0,0.0,0.0,0.0,0.0,0.0,0.0,0.0,0.0,0.0,0.0,-9.261928139816188,2.0906296682166037e-05,-33.736266267840875,-1.641090884604672e-11
0.18000000000000013,open gripper to maximum,0,0.00010821201040378698,0.08,-0.35054301845162356,-0.3287301180484362,0.05499948721716875,0.30317867919491504,0.0,0.0,0.0,0.0,0.0,0.0,0.0,0.0,0.0,0.0,0.0,0.0,0.0,0.0,0.0,0.0,-9.261928139816188,2.0906296682166037e-05,-33.736266267840875,-1.641090884604672e-11
0.18200000000000013,open gripper to maximum,0,0.00010818123924246258,0.08,-0.3505430185667564,-0.32873010274391096,0.054999483202252904,0.3031786944446561,0.0,0.0,0.0,0.0,0.0,0.0,0.0,0.0,0.0,0.0,0.0,0.0,0.0,0.0,0.0,0.0,-9.261928139816188,2.0906296682166037e-05,-33.736266267840875,-1.641090884604672e-11
0.18400000000000014,open gripper to maximum,0,0.0001081517950362558,0.08,-0.35054301876252664,-0.3287300874801823,0.054999479649096156,0.30317870964748406,0.0,0.0,0.0,0.0,0.0,0.0,0.0,0.0,0.0,0.0,0.0,0.0,0.0,0.0,0.0,0.0,-9.261928139816188,2.0906296682166037e-05,-33.736266267840875,-1.641090884604672e-11
0.18600000000000014,open gripper to maximum,0,0.00010812355082590322,0.08,-0.3505430190352237,-0.32873007225575024,0.05499947644581358,0.30317872480518127,0.0,0.0,0.0,0.0,0.0,0.0,0.0,0.0,0.0,0.0,0.0,0.0,0.0,0.0,0.0,0.0,-9.261928139816188,2.0906296682166037e-05,-33.736266267840875,-1.641090884604672e-11
0.18800000000000014,open gripper to maximum,0,0.00010809639658815716,0.08,-0.3505430193813395,-0.32873005706923286,0.05499947350808736,0.30317873991939714,0.0,0.0,0.0,0.0,0.0,0.0,0.0,0.0,0.0,0.0,0.0,0.0,0.0,0.0,0.0,0.0,-9.261928139816188,2.0906296682166037e-05,-33.736266267840875,-1.641090884604672e-11
0.19000000000000014,open gripper to maximum,0,0.00010807023628921805,0.08,-0.3505430197975556,-0.32873004191935484,0.054999470772353,0.30317875499165975,0.0,0.0,0.0,0.0,0.0,0.0,0.0,0.0,0.0,0.0,0.0,0.0,0.0,0.0,0.0,0.0,-9.261928139816188,2.0906296682166037e-05,-33.736266267840875,-1.641090884604672e-11
0.19200000000000014,open gripper to maximum,0,0.00010804498554655548,0.08,-0.35054302028073164,-0.3287300268049375,0.054999468190671426,0.30317877002338733,0.0,0.0,0.0,0.0,0.0,0.0,0.0,0.0,0.0,0.0,0.0,0.0,0.0,0.0,0.0,0.0,-9.261928139816188,2.0906296682166037e-05,-33.736266267840875,-1.641090884604672e-11
0.19400000000000014,open gripper to maximum,0,0.00010802056976215017,0.08,-0.3505430208278947,-0.3287300117248898,0.054999465726869555,0.30317878501589757,0.0,0.0,0.0,0.0,0.0,0.0,0.0,0.0,0.0,0.0,0.0,0.0,0.0,0.0,0.0,0.0,-9.261928139816188,2.0906296682166037e-05,-33.736266267840875,-1.641090884604672e-11
0.19600000000000015,open gripper to maximum,0,0.00010799692262100835,0.08,-0.3505430214362286,-0.3287299966782003,0.05499946335363567,0.30317879997041686,0.0,0.0,0.0,0.0,0.0,0.0,0.0,0.0,0.0,0.0,0.0,0.0,0.0,0.0,0.0,0.0,-9.261928139816188,2.0906296682166037e-05,-33.736266267840875,-1.641090884604672e-11
0.19800000000000015,open gripper to maximum,0,0.00010797398487506394,0.08,-0.35054302210306487,-0.3287299816639302,0.05499946105033302,0.3031788148880876,0.0,0.0,0.0,0.0,0.0,0.0,0.0,0.0,0.0,0.0,0.0,0.0,0.0,0.0,0.0,0.0,-9.261928139816188,2.0906296682166037e-05,-33.736266267840875,-1.641090884604672e-11
0.20000000000000015,open gripper to maximum,0,0.00010795170335021253,0.08,-0.3505430228258734,-0.3287299666812069,0.054999458801354116,0.3031788297699755,0.0,0.0,0.0,0.0,0.0,0.0,0.0,0.0,0.0,0.0,0.0,0.0,0.0,0.0,0.0,0.0,-9.261928139816188,2.0906296682166037e-05,-33.736266267840875,-1.641090884604672e-11
0.20200000000000015,settle on raised table,0,0.00010793003013000224,0.08,-0.35054302360225437,-0.3287299517292183,0.05499945659488178,0.30317884461707595,0.0,0.0,0.0,0.0,0.0,0.0,0.0,0.0,0.0,0.0,0.0,0.0,0.0,0.0,0.0,0.0,-9.261928139816188,2.0906296682166037e-05,-33.736266267840875,-1.641090884604672e-11
0.20400000000000015,settle on raised table,0,0.0001093645079148645,0.08,-0.35054300755029133,-0.3287299674737668,0.054999547776352055,0.3031788301616651,0.0,0.0,0.0,0.0,0.0,0.0,0.0,0.0,0.0,0.0,0.0,0.0,0.0,0.0,0.0,0.0,-9.261928139816188,2.0906296682166037e-05,-33.736266267840875,-1.641090884604672e-11
0.20600000000000016,settle on raised table,0,0.00013464085534690412,0.08,-0.3505429923984902,-0.328730015188408,0.05499973235040192,0.3031787837623493,0.0,0.0,0.0,0.0,0.0,0.0,0.0,0.0,0.0,0.0,0.0,0.0,0.0,0.0,0.0,0.0,-9.261928139816188,2.0906296682166037e-05,-33.736266267840875,-1.641090884604672e-11
0.20800000000000016,settle on raised table,0,0.00013446526152850773,0.08,-0.350542977445244,-0.3287300631594287,0.05499986324365786,0.30317873709206145,0.0,0.0,0.0,0.0,0.0,0.0,0.0,0.0,0.0,0.0,0.0,0.0,0.0,0.0,0.0,0.0,-9.261928139816188,2.0906296682166037e-05,-33.736266267840875,-1.641090884604672e-11
0.21000000000000016,settle on raised table,0,0.00013448718075252075,0.08,-0.3505429625731672,-0.32873011112465433,0.05499995383620023,0.30317869042127227,0.0,0.0,0.0,0.0,0.0,0.0,0.0,0.0,0.0,0.0,0.0,0.0,0.0,0.0,0.0,0.0,-9.261928139816188,2.0906296682166037e-05,-33.736266267840875,-1.641090884604672e-11
0.21200000000000016,settle on raised table,0,0.00026764571861778074,0.07999961830180168,-0.3505430481293419,-0.3287302093551459,0.055000381698198327,0.3031785858657341,0.0,0.0,0.0,0.0,0.0,0.0,0.0,0.0,0.0,0.0,0.0,0.0,0.0,0.0,0.0,0.0,-9.261928139816188,2.0906296682166037e-05,-33.736266267840875,-1.641090884604672e-11
0.21400000000000016,settle on raised table,0,0.00025560938315783484,0.07999930551042973,-0.3505431073443908,-0.3287302987837569,0.05500069448957027,0.30317849212372183,0.0,0.0,0.0,0.0,0.0,0.0,0.0,0.0,0.0,0.0,0.0,0.0,0.0,0.0,0.0,0.0,-9.261928139816188,2.0906296682166037e-05,-33.736266267840875,-1.641090884604672e-11
0.21600000000000016,settle on raised table,0,0.0,0.08,-0.35054316655943973,-0.32873038821236794,0.05496176728094221,0.30317839838171845,0.0,0.0,0.0,0.0,0.0,0.0,0.0,0.0,0.0,0.0,0.0,0.0,0.0,0.0,0.0,0.0,-9.261928139816188,2.0906296682166037e-05,-33.736266267840875,-1.641090884604672e-11
0.21800000000000017,settle on raised table,0,0.00026810000891509724,0.08,-0.3505431937249051,-0.32873031970618005,0.05497109481584266,0.3031784645807737,0.0,0.0,0.0,0.0,0.0,0.0,0.0,0.0,0.0,0.0,0.0,0.0,0.0,0.0,0.0,0.0,-9.261928139816188,2.0906296682166037e-05,-33.736266267840875,-1.641090884604672e-11
0.22000000000000017,settle on raised table,0,0.00010627408439870176,0.08,-0.3505431742642936,-0.32873032976734207,0.05497820387699846,0.30317845605543126,0.0,0.0,0.0,0.0,0.0,0.0,0.0,0.0,0.0,0.0,0.0,0.0,0.0,0.0,0.0,0.0,-9.261928139816188,2.0906296682166037e-05,-33.736266267840875,-1.641090884604672e-11
0.22200000000000017,settle on raised table,0,0.00010788088234314284,0.08,-0.35054315390638124,-0.3287303416304375,0.05498355000697152,0.3031784458029821,0.0,0.0,0.0,0.0,0.0,0.0,0.0,0.0,0.0,0.0,0.0,0.0,0.0,0.0,0.0,0.0,-9.261928139816188,2.0906296682166037e-05,-33.736266267840875,-1.641090884604672e-11
0.22400000000000017,settle on raised table,0,0.00010887424152694147,0.08,-0.3505431335323739,-0.3287303538701793,0.05498757038544125,0.3031784351762623,0.0,0.0,0.0,0.0,0.0,0.0,0.0,0.0,0.0,0.0,0.0,0.0,0.0,0.0,0.0,0.0,-9.261928139816188,2.0906296682166037e-05,-33.736266267840875,-1.641090884604672e-11
0.22600000000000017,settle on raised table,0,0.00011709098400604049,0.08,-0.35054314482056087,-0.3287303229088529,0.054990478111975424,0.30317846517141606,0.0,0.0,0.0,0.0,0.0,0.0,0.0,0.0,0.0,0.0,0.0,0.0,0.0,0.0,0.0,0.0,-9.261928139816188,2.0906296682166037e-05,-33.736266267840875,-1.641090884604672e-11
0.22800000000000017,settle on raised table,0,0.00011014147726528807,0.08,-0.35054312506062896,-0.3287303349475645,0.05499278294211134,0.30317845469761345,0.0,0.0,0.0,0.0,0.0,0.0,0.0,0.0,0.0,0.0,0.0,0.0,0.0,0.0,0.0,0.0,-9.261928139816188,2.0906296682166037e-05,-33.736266267840875,-1.641090884604672e-11
0.23000000000000018,settle on raised table,0,0.00011835376811661584,0.08,-0.35054313651807895,-0.328730303604465,0.05499439857649964,0.30317848506029976,0.0,0.0,0.0,0.0,0.0,0.0,0.0,0.0,0.0,0.0,0.0,0.0,0.0,0.0,0.0,0.0,-9.261928139816188,2.0906296682166037e-05,-33.736266267840875,-1.641090884604672e-11
0.23200000000000018,settle on raised table,0,0.00011070327048736483,0.08,-0.35054311707835,-0.32873031621078175,0.05499573280479452,0.3031784739958198,0.0,0.0,0.0,0.0,0.0,0.0,0.0,0.0,0.0,0.0,0.0,0.0,0.0,0.0,0.0,0.0,-9.261928139816188,2.0906296682166037e-05,-33.736266267840875,-1.641090884604672e-11
0.23400000000000018,settle on raised table,0,0.00011073220088307865,0.08,-0.3505430974336071,-0.3287303297648213,0.054996735122755894,0.30317846200232124,0.0,0.0,0.0,0.0,0.0,0.0,0.0,0.0,0.0,0.0,0.0,0.0,0.0,0.0,0.0,0.0,-9.261928139816188,2.0906296682166037e-05,-33.736266267840875,-1.641090884604672e-11
0.23600000000000018,settle on raised table,0,0.00011931800425762923,0.08,-0.3505431090327301,-0.3287302981659345,0.054997372508327536,0.3031784926090656,0.0,0.0,0.0,0.0,0.0,0.0,0.0,0.0,0.0,0.0,0.0,0.0,0.0,0.0,0.0,0.0,-9.261928139816188,2.0906296682166037e-05,-33.736266267840875,-1.641090884604672e-11
0.23800000000000018,settle on raised table,0,0.00011083189691476324,0.08,-0.3505430902678061,-0.3287303112776877,0.054997969151381706,0.30317848098845646,0.0,0.0,0.0,0.0,0.0,0.0,0.0,0.0,0.0,0.0,0.0,0.0,0.0,0.0,0.0,0.0,-9.261928139816188,2.0906296682166037e-05,-33.736266267840875,-1.641090884604672e-11
0.24000000000000019,settle on raised table,0,0.00011983626142758745,0.08,-0.3505431012998784,-0.3287302792856433,0.05499829961787316,0.3031785120310524,0.0,0.0,0.0,0.0,0.0,0.0,0.0,0.0,0.0,0.0,0.0,0.0,0.0,0.0,0.0,0.0,-9.261928139816188,2.0906296682166037e-05,-33.736266267840875,-1.641090884604672e-11
0.2420000000000002,settle on raised table,0,0.00011073499039061089,0.08,-0.3505430829592578,-0.3287302926744778,0.05499866696626005,0.3031785001013646,0.0,0.0,0.0,0.0,0.0,0.0,0.0,0.0,0.0,0.0,0.0,0.0,0.0,0.0,0.0,0.0,-9.261928139816188,2.0906296682166037e-05,-33.736266267840875,-1.641090884604672e-11
0.2440000000000002,settle on raised table,0,0.00011052765132686348,0.08,-0.3505430644810068,-0.3287303069854764,0.05499894187962027,0.3031784872629266,0.0,0.0,0.0,0.0,0.0,0.0,0.0,0.0,0.0,0.0,0.0,0.0,0.0,0.0,0.0,0.0,-9.261928139816188,2.0906296682166037e-05,-33.736266267840875,-1.641090884604672e-11
0.2460000000000002,settle on raised table,0,0.0001200675416512668,0.08,-0.3505430755729822,-0.32873027494938967,0.05499903181615519,0.303178518344797,0.0,0.0,0.0,0.0,0.0,0.0,0.0,0.0,0.0,0.0,0.0,0.0,0.0,0.0,0.0,0.0,-9.261928139816188,2.0906296682166037e-05,-33.736266267840875,-1.641090884604672e-11
0.2480000000000002,settle on raised table,0,0.00011036724434073881,0.08,-0.3505430579866737,-0.3287302887202409,0.05499921677726205,0.303178505975878,0.0,0.0,0.0,0.0,0.0,0.0,0.0,0.0,0.0,0.0,0.0,0.0,0.0,0.0,0.0,0.0,-9.261928139816188,2.0906296682166037e-05,-33.736266267840875,-1.641090884604672e-11
0.25000000000000017,settle on raised table,0,0.00012012178553205017,0.08,-0.35054306910813116,-0.32873025667834854,0.05499923732222306,0.3031785370612553,0.0,0.0,0.0,0.0,0.0,0.0,0.0,0.0,0.0,0.0,0.0,0.0,0.0,0.0,0.0,0.0,-9.261928139816188,2.0906296682166037e-05,-33.736266267840875,-1.641090884604672e-11
0.25200000000000017,settle on raised table,0,0.00011013251969397172,0.08,-0.3505430519375741,-0.32873027066247756,0.054999371740579006,0.30317852444753146,0.0,0.0,0.0,0.0,0.0,0.0,0.0,0.0,0.0,0.0,0.0,0.0,0.0,0.0,0.0,0.0,-9.261928139816188,2.0906296682166037e-05,-33.736266267840875,-1.641090884604672e-11
0.25400000000000017,settle on raised table,0,0.0001098666132984892,0.08,-0.3505430346463407,-0.3287302855505666,0.05499947146321243,0.3031785109418951,0.0,0.0,0.0,0.0,0.0,0.0,0.0,0.0,0.0,0.0,0.0,0.0,0.0,0.0,0.0,0.0,-9.261928139816188,2.0906296682166037e-05,-33.736266267840875,-1.641090884604672e-11
0.25600000000000017,settle on raised table,0,0.00012017478669413474,0.08,-0.3505430458074585,-0.3287302535118657,0.05499942928764852,0.30317854202102096,0.0,0.0,0.0,0.0,0.0,0.0,0.0,0.0,0.0,0.0,0.0,0.0,0.0,0.0,0.0,0.0,-9.261928139816188,2.0906296682166037e-05,-33.736266267840875,-1.641090884604672e-11
0.2580000000000002,settle on raised table,0,0.00010968149601407082,0.08,-0.3505430293566608,-0.32873026779706505,0.054999515219994195,0.3031785290514427,0.0,0.0,0.0,0.0,0.0,0.0,0.0,0.0,0.0,0.0,0.0,0.0,0.0,0.0,0.0,0.0,-9.261928139816188,2.0906296682166037e-05,-33.736266267840875,-1.641090884604672e-11
0.2600000000000002,settle on raised table,0,0.00010940506244198478,0.08,-0.3505430127932763,-0.32873028297907597,0.05499957850291396,0.303178515196453,0.0,0.0,0.0,0.0,0.0,0.0,0.0,0.0,0.0,0.0,0.0,0.0,0.0,0.0,0.0,0.0,-9.261928139816188,2.0906296682166037e-05,-33.736266267840875,-1.641090884604672e-11
0.2620000000000002,settle on raised table,0,0.00010791500304150218,0.08,-0.3505430116689064,-0.328730267791736,0.05499955765085241,0.30317853042526066,0.0,0.0,0.0,0.0,0.0,0.0,0.0,0.0,0.0,0.0,0.0,0.0,0.0,0.0,0.0,0.0,-9.261928139816188,2.0906296682166037e-05,-33.736266267840875,-1.641090884604672e-11
0.2640000000000002,settle on raised table,0,0.00010849399454981142,0.08,-0.35054301097282664,-0.32873025206474865,0.05499954143986152,0.3031785461589611,0.0,0.0,0.0,0.0,0.0,0.0,0.0,0.0,0.0,0.0,0.0,0.0,0.0,0.0,0.0,0.0,-9.261928139816188,2.0906296682166037e-05,-33.736266267840875,-1.641090884604672e-11
0.2660000000000002,settle on raised table,0,0.00010894795539972191,0.08,-0.35054299541873857,-0.3287302670262898,0.0549995980831045,0.30317853244569176,0.0,0.0,0.0,0.0,0.0,0.0,0.0,0.0,0.0,0.0,0.0,0.0,0.0,0.0,0.0,0.0,-9.261928139816188,2.0906296682166037e-05,-33.736266267840875,-1.641090884604672e-11
0.2680000000000002,settle on raised table,0,0.00010780248273566737,0.08,-0.3505429947579569,-0.32873025199555,0.0549995717293006,0.3031785474825007,0.0,0.0,0.0,0.0,0.0,0.0,0.0,0.0,0.0,0.0,0.0,0.0,0.0,0.0,0.0,0.0,-9.261928139816188,2.0906296682166037e-05,-33.736266267840875,-1.641090884604672e-11
0.2700000000000002,settle on raised table,0,0.0001083842655229805,0.08,-0.3505429944999039,-0.32873023642305177,0.05499955139235017,0.3031785630282849,0.0,0.0,0.0,0.0,0.0,0.0,0.0,0.0,0.0,0.0,0.0,0.0,0.0,0.0,0.0,0.0,-9.261928139816188,2.0906296682166037e-05,-33.736266267840875,-1.641090884604672e-11
0.2720000000000002,settle on raised table,0,0.00010835023645344343,0.08,-0.3505429943549374,-0.32873022089193177,0.054999535543218715,0.3031785785240654,0.0,0.0,0.0,0.0,0.0,0.0,0.0,0.0,0.0,0.0,0.0,0.0,0.0,0.0,0.0,0.0,-9.261928139816188,2.0906296682166037e-05,-33.736266267840875,-1.641090884604672e-11
0.2740000000000002,settle on raised table,0,0.00010831219341688632,0.08,-0.35054299431213165,-0.32873020541001935,0.05499952307422497,0.3031785939628815,0.0,0.0,0.0,0.0,0.0,0.0,0.0,0.0,0.0,0.0,0.0,0.0,0.0,0.0,0.0,0.0,-9.261928139816188,2.0906296682166037e-05,-33.736266267840875,-1.641090884604672e-11
0.2760000000000002,settle on raised table,0,0.000108276465498126,0.08,-0.3505429943661485,-0.32873018997511905,0.05499951315166294,0.30317860934733537,0.0,0.0,0.0,0.0,0.0,0.0,0.0,0.0,0.0,0.0,0.0,0.0,0.0,0.0,0.0,0.0,-9.261928139816188,2.0906296682166037e-05,-33.736266267840875,-1.641090884604672e-11
0.2780000000000002,settle on raised table,0,0.00010824284013683975,0.08,-0.35054299451206744,-0.32873017458507814,0.054999505148025804,0.3031786246799537,0.0,0.0,0.0,0.0,0.0,0.0,0.0,0.0,0.0,0.0,0.0,0.0,0.0,0.0,0.0,0.0,-9.261928139816188,2.0906296682166037e-05,-33.736266267840875,-1.641090884604672e-11
0.2800000000000002,settle on raised table,0,0.00010821104518606669,0.08,-0.35054299474526635,-0.32873015923794047,0.05499949859097563,0.3031786399630446,0.0,0.0,0.0,0.0,0.0,0.0,0.0,0.0,0.0,0.0,0.0,0.0,0.0,0.0,0.0,0.0,-9.261928139816188,2.0906296682166037e-05,-33.736266267840875,-1.641090884604672e-11
0.2820000000000002,settle on raised table,0,0.00010818085492030443,0.08,-0.35054299506139935,-0.3287301439319263,0.054999493124944746,0.30317865519871867,0.0,0.0,0.0,0.0,0.0,0.0,0.0,0.0,0.0,0.0,0.0,0.0,0.0,0.0,0.0,0.0,-9.261928139816188,2.0906296682166037e-05,-33.736266267840875,-1.641090884604672e-11
0.2840000000000002,settle on raised table,0,0.00010815208193607845,0.08,-0.35054299545637796,-0.32873012866541224,0.05499948848224183,0.30317867038891066,0.0,0.0,0.0,0.0,0.0,0.0,0.0,0.0,0.0,0.0,0.0,0.0,0.0,0.0,0.0,0.0,-9.261928139816188,2.0906296682166037e-05,-33.736266267840875,-1.641090884604672e-11
0.2860000000000002,settle on raised table,0,0.00010812456930012929,0.08,-0.35054299592635374,-0.3287301134369141,0.05499948446130976,0.30317868553539823,0.0,0.0,0.0,0.0,0.0,0.0,0.0,0.0,0.0,0.0,0.0,0.0,0.0,0.0,0.0,0.0,-9.261928139816188,2.0906296682166037e-05,-33.736266267840875,-1.641090884604672e-11
0.2880000000000002,settle on raised table,0,0.00010809818444880587,0.08,-0.3505429964677022,-0.3287300982450718,0.054999480910364884,0.30317870063981767,0.0,0.0,0.0,0.0,0.0,0.0,0.0,0.0,0.0,0.0,0.0,0.0,0.0,0.0,0.0,0.0,-9.261928139816188,2.0906296682166037e-05,-33.736266267840875,-1.641090884604672e-11
0.2900000000000002,settle on raised table,0,0.00010807281445085624,0.08,-0.3505429970770078,-0.32873008308863655,0.05499947771508548,0.3031787157036784,0.0,0.0,0.0,0.0,0.0,0.0,0.0,0.0,0.0,0.0,0.0,0.0,0.0,0.0,0.0,0.0,-9.261928139816188,2.0906296682166037e-05,-33.736266267840875,-1.641090884604672e-11
0.2920000000000002,settle on raised table,0,0.00010804836231242409,0.08,-0.3505429977510501,-0.3287300679664594,0.054999474789347205,0.3031787307283749,0.0,0.0,0.0,0.0,0.0,0.0,0.0,0.0,0.0,0.0,0.0,0.0,0.0,0.0,0.0,0.0,-9.261928139816188,2.0906296682166037e-05,-33.736266267840875,-1.641090884604672e-11
0.2940000000000002,settle on raised table,0,0.00010802474408028666,0.08,-0.35054299848679077,-0.3287300528774816,0.05499947206825116,0.30317874571519815,0.0,0.0,0.0,0.0,0.0,0.0,0.0,0.0,0.0,0.0,0.0,0.0,0.0,0.0,0.0,0.0,-9.261928139816188,2.0906296682166037e-05,-33.736266267840875,-1.641090884604672e-11
0.2960000000000002,settle on raised table,0,0.00010800188655891687,0.08,-0.35054299928136173,-0.32873003782072535,0.05499946950287716,0.3031787606653446,0.0,0.0,0.0,0.0,0.0,0.0,0.0,0.0,0.0,0.0,0.0,0.0,0.0,0.0,0.0,0.0,-9.261928139816188,2.0906296682166037e-05,-33.736266267840875,-1.641090884604672e-11
0.2980000000000002,settle on raised table,0,0.00010797972550019679,0.08,-0.3505430001320541,-0.3287300227952866,0.05499946705633516,0.3031787755799254,0.0,0.0,0.0,0.0,0.0,0.0,0.0,0.0,0.0,0.0,0.0,0.0,0.0,0.0,0.0,0.0,-9.261928139816188,2.0906296682166037e-05,-33.736266267840875,-1.641090884604672e-11
0.3000000000000002,settle on raised table,0,0.00010795820415867445,0.08,-0.35054300103630776,-0.32873000780032785,0.05499946470079361,0.3031787904599735,0.0,0.0,0.0,0.0,0.0,0.0,0.0,0.0,0.0,0.0,0.0,0.0,0.0,0.0,0.0,0.0,-9.261928139816188,2.0906296682166037e-05,-33.736266267840875,-1.641090884604672e-11
0.3020000000000002,settle on raised table,0,0.000107937272130948,0.08,-0.35054300199170185,-0.3287299928350722,0.05499946241524277,0.3031788053064508,0.0,0.0,0.0,0.0,0.0,0.0,0.0,0.0,0.0,0.0,0.0,0.0,0.0,0.0,0.0,0.0,-9.261928139816188,2.0906296682166037e-05,-33.736266267840875,-1.641090884604672e-11
0.3040000000000002,settle on raised table,0,0.0001079168844164661,0.08,-0.3505430029959459,-0.3287299778987979,0.05499946018381133,0.30317882012025416,0.0,0.0,0.0,0.0,0.0,0.0,0.0,0.0,0.0,0.0,0.0,0.0,0.0,0.0,0.0,0.0,-9.261928139816188,2.0906296682166037e-05,-33.736266267840875,-1.641090884604672e-11
0.3060000000000002,settle on raised table,0,0.00010789700065161346,0.08,-0.35054300404687144,-0.3287299629908334,0.05499945799449918,0.30317883490222075,0.0,0.0,0.0,0.0,0.0,0.0,0.0,0.0,0.0,0.0,0.0,0.0,0.0,0.0,0.0,0.0,-9.261928139816188,2.0906296682166037e-05,-33.736266267840875,-1.641090884604672e-11
0.3080000000000002,settle on raised table,0,0.00010787758448084522,0.08,-0.3505430051424246,-0.3287299481105532,0.05499945583822355,0.30317884965313324,0.0,0.0,0.0,0.0,0.0,0.0,0.0,0.0,0.0,0.0,0.0,0.0,0.0,0.0,0.0,0.0,-9.261928139816188,2.0906296682166037e-05,-33.736266267840875,-1.641090884604672e-11
0.3100000000000002,settle on raised table,0,0.0001092890115783851,0.08,-0.35054298973502024,-0.32872996401511684,0.05499954647819153,0.30317883498831827,0.0,0.0,0.0,0.0,0.0,0.0,0.0,0.0,0.0,0.0,0.0,0.0,0.0,0.0,0.0,0.0,-9.261928139816188,2.0906296682166037e-05,-33.736266267840875,-1.641090884604672e-11
0.3120000000000002,settle on raised table,0,0.00010928895250224238,0.08,-0.3505429771176408,-0.32872998058459346,0.05499961204243531,0.3031788194447194,0.0,0.0,0.0,0.0,0.0,0.0,0.0,0.0,0.0,0.0,0.0,0.0,0.0,0.0,0.0,0.0,-9.261928139816188,2.0906296682166037e-05,-33.736266267840875,-1.641090884604672e-11
0.3140000000000002,settle on raised table,0,0.00010932718990076058,0.08,-0.3505429647782859,-0.3287299971977374,0.05499966028309775,0.30317880383607393,0.0,0.0,0.0,0.0,0.0,0.0,0.0,0.0,0.0,0.0,0.0,0.0,0.0,0.0,0.0,0.0,-9.261928139816188,2.0906296682166037e-05,-33.736266267840875,-1.641090884604672e-11
0.3160000000000002,settle on raised table,0,0.00013508285283844737,0.08,-0.3505429527781014,-0.32873004564312747,0.05499981004734511,0.3031787564643608,0.0,0.0,0.0,0.0,0.0,0.0,0.0,0.0,0.0,0.0,0.0,0.0,0.0,0.0,0.0,0.0,-9.261928139816188,2.0906296682166037e-05,-33.736266267840875,-1.641090884604672e-11
0.3180000000000002,settle on raised table,0,0.00013474379200810905,0.08,-0.3505429393166341,-0.32873009402065534,0.05499991537441522,0.3031787092733673,0.0,0.0,0.0,0.0,0.0,0.0,0.0,0.0,0.0,0.0,0.0,0.0,0.0,0.0,0.0,0.0,-9.261928139816188,2.0906296682166037e-05,-33.736266267840875,-1.641090884604672e-11
0.32000000000000023,settle on raised table,0,0.0002701941090938786,0.07999964863406096,-0.3505430322580201,-0.3287301942708917,0.05500035136593904,0.30317860213273823,0.0,0.0,0.0,0.0,0.0,0.0,0.0,0.0,0.0,0.0,0.0,0.0,0.0,0.0,0.0,0.0,-9.261928139816188,2.0906296682166037e-05,-33.736266267840875,-1.641090884604672e-11
0.32200000000000023,settle on raised table,0,0.00025768932826810765,0.07999932955432155,-0.3505430969397038,-0.32873028584425235,0.05500067044567845,0.3031785058294495,0.0,0.0,0.0,0.0,0.0,0.0,0.0,0.0,0.0,0.0,0.0,0.0,0.0,0.0,0.0,0.0,-9.261928139816188,2.0906296682166037e-05,-33.736266267840875,-1.641090884604672e-11
0.32400000000000023,settle on raised table,0,0.0,0.08,-0.35054316162138754,-0.328730377417613,0.05496174952541785,0.3031784095261716,0.0,0.0,0.0,0.0,0.0,0.0,0.0,0.0,0.0,0.0,0.0,0.0,0.0,0.0,0.0,0.0,-9.261928139816188,2.0906296682166037e-05,-33.736266267840875,-1.641090884604672e-11
0.32600000000000023,settle on raised table,0,0.00026804705485185417,0.08,-0.35054318889803,-0.3287303089760158,0.0549710807891651,0.30317847565222766,0.0,0.0,0.0,0.0,0.0,0.0,0.0,0.0,0.0,0.0,0.0,0.0,0.0,0.0,0.0,0.0,-9.261928139816188,2.0906296682166037e-05,-33.736266267840875,-1.641090884604672e-11
0.32800000000000024,settle on raised table,0,0.0001060981378606028,0.08,-0.350543169689439,-0.328730319208165,0.054978193334301206,0.3031784669369121,0.0,0.0,0.0,0.0,0.0,0.0,0.0,0.0,0.0,0.0,0.0,0.0,0.0,0.0,0.0,0.0,-9.261928139816188,2.0906296682166037e-05,-33.736266267840875,-1.641090884604672e-11
0.33000000000000024,settle on raised table,0,0.00010770059823264756,0.08,-0.35054314958903876,-0.32873033124130624,0.05498354210115774,0.30317845649500336,0.0,0.0,0.0,0.0,0.0,0.0,0.0,0.0,0.0,0.0,0.0,0.0,0.0,0.0,0.0,0.0,-9.261928139816188,2.0906296682166037e-05,-33.736266267840875,-1.641090884604672e-11
0.33200000000000024,settle on raised table,0,0.00010869333374146617,0.08,-0.3505431294752241,-0.32873034364826426,0.05498756448034347,0.3031784456814378,0.0,0.0,0.0,0.0,0.0,0.0,0.0,0.0,0.0,0.0,0.0,0.0,0.0,0.0,0.0,0.0,-9.261928139816188,2.0906296682166037e-05,-33.736266267840875,-1.641090884604672e-11
0.33400000000000024,settle on raised table,0,0.00011707743431076571,0.08,-0.35054314077287185,-0.328730312701063,0.054990473015491696,0.3031784756617766,0.0,0.0,0.0,0.0,0.0,0.0,0.0,0.0,0.0,0.0,0.0,0.0,0.0,0.0,0.0,0.0,-9.261928139816188,2.0906296682166037e-05,-33.736266267840875,-1.641090884604672e-11
0.33600000000000024,settle on raised table,0,0.00010997102551438436,0.08,-0.3505431212633382,-0.3287303248941825,0.054992779172002376,0.3031784650146559,0.0,0.0,0.0,0.0,0.0,0.0,0.0,0.0,0.0,0.0,0.0,0.0,0.0,0.0,0.0,0.0,-9.261928139816188,2.0906296682166037e-05,-33.736266267840875,-1.641090884604672e-11
0.33800000000000024,settle on raised table,0,0.00011021660977479513,0.08,-0.3505431015183974,-0.3287303382145027,0.05499451271815498,0.30317845326192816,0.0,0.0,0.0,0.0,0.0,0.0,0.0,0.0,0.0,0.0,0.0,0.0,0.0,0.0,0.0,0.0,-9.261928139816188,2.0906296682166037e-05,-33.736266267840875,-1.641090884604672e-11
0.34000000000000025,settle on raised table,0,0.00011877842620542742,0.08,-0.3505431130524292,-0.3287303067594026,0.054995701009093796,0.30317848373035305,0.0,0.0,0.0,0.0,0.0,0.0,0.0,0.0,0.0,0.0,0.0,0.0,0.0,0.0,0.0,0.0,-9.261928139816188,2.0906296682166037e-05,-33.736266267840875,-1.641090884604672e-11
0.34200000000000025,settle on raised table,0,0.00011060058963327221,0.08,-0.3505430941321764,-0.3287303196966348,0.05499671138058087,0.3031784722957594,0.0,0.0,0.0,0.0,0.0,0.0,0.0,0.0,0.0,0.0,0.0,0.0,0.0,0.0,0.0,0.0,-9.261928139816188,2.0906296682166037e-05,-33.736266267840875,-1.641090884604672e-11
0.34400000000000025,settle on raised table,0,0.00011930865651516842,0.08,-0.3505431057475192,-0.3287302881005512,0.05499735398175577,0.30317850289845394,0.0,0.0,0.0,0.0,0.0,0.0,0.0,0.0,0.0,0.0,0.0,0.0,0.0,0.0,0.0,0.0,-9.261928139816188,2.0906296682166037e-05,-33.736266267840875,-1.641090884604672e-11
0.34600000000000025,settle on raised table,0,0.00011067130760469992,0.08,-0.3505430872165867,-0.32873030134044534,0.05499795533955854,0.30317849113198425,0.0,0.0,0.0,0.0,0.0,0.0,0.0,0.0,0.0,0.0,0.0,0.0,0.0,0.0,0.0,0.0,-9.261928139816188,2.0906296682166037e-05,-33.736266267840875,-1.641090884604672e-11
0.34800000000000025,settle on raised table,0,0.00011052653890773001,0.08,-0.3505430685286586,-0.328730315505272,0.05499840630977055,0.30317847845550255,0.0,0.0,0.0,0.0,0.0,0.0,0.0,0.0,0.0,0.0,0.0,0.0,0.0,0.0,0.0,0.0,-9.261928139816188,2.0906296682166037e-05,-33.736266267840875,-1.641090884604672e-11
0.35000000000000026,settle on raised table,0,0.00011994536361753433,0.08,-0.35054307959992304,-0.3287302834927645,0.05499862950436083,0.30317850951546693,0.0,0.0,0.0,0.0,0.0,0.0,0.0,0.0,0.0,0.0,0.0,0.0,0.0,0.0,0.0,0.0,-9.261928139816188,2.0906296682166037e-05,-33.736266267840875,-1.641090884604672e-11
0.35200000000000026,settle on raised table,0,0.00011042464563748514,0.08,-0.3505430618050298,-0.3287302971395689,0.05499891392285285,0.3031784972863609,0.0,0.0,0.0,0.0,0.0,0.0,0.0,0.0,0.0,0.0,0.0,0.0,0.0,0.0,0.0,0.0,-9.261928139816188,2.0906296682166037e-05,-33.736266267840875,-1.641090884604672e-11
0.35400000000000026,settle on raised table,0,0.00012005756746138016,0.08,-0.3505430729117598,-0.3287302651056005,0.05499901010554946,0.30317852836497766,0.0,0.0,0.0,0.0,0.0,0.0,0.0,0.0,0.0,0.0,0.0,0.0,0.0,0.0,0.0,0.0,-9.261928139816188,2.0906296682166037e-05,-33.736266267840875,-1.641090884604672e-11
0.35600000000000026,settle on raised table,0,0.00011022172445188338,0.08,-0.35054305553757975,-0.32873027898043183,0.054999200615800846,0.303178515875978,0.0,0.0,0.0,0.0,0.0,0.0,0.0,0.0,0.0,0.0,0.0,0.0,0.0,0.0,0.0,0.0,-9.261928139816188,2.0906296682166037e-05,-33.736266267840875,-1.641090884604672e-11
0.35800000000000026,settle on raised table,0,0.00010997095258706335,0.08,-0.35054303804101095,-0.3287302937640722,0.05499934253194101,0.3031785024903638,0.0,0.0,0.0,0.0,0.0,0.0,0.0,0.0,0.0,0.0,0.0,0.0,0.0,0.0,0.0,0.0,-9.261928139816188,2.0906296682166037e-05,-33.736266267840875,-1.641090884604672e-11
0.36000000000000026,settle on raised table,0,0.00012015381805195063,0.08,-0.35054304919217477,-0.32873026172191977,0.054999332926924584,0.30317853357370117,0.0,0.0,0.0,0.0,0.0,0.0,0.0,0.0,0.0,0.0,0.0,0.0,0.0,0.0,0.0,0.0,-9.261928139816188,2.0906296682166037e-05,-33.736266267840875,-1.641090884604672e-11
0.36200000000000027,settle on raised table,0,0.00010979002455527862,0.08,-0.35054303254781644,-0.32873027591471776,0.05499944252959065,0.303178520711223,0.0,0.0,0.0,0.0,0.0,0.0,0.0,0.0,0.0,0.0,0.0,0.0,0.0,0.0,0.0,0.0,-9.261928139816188,2.0906296682166037e-05,-33.736266267840875,-1.641090884604672e-11
0.36400000000000027,settle on raised table,0,0.00012016495198780056,0.08,-0.35054304372232237,-0.3287302438774806,0.05499940684445864,0.30317855178785363,0.0,0.0,0.0,0.0,0.0,0.0,0.0,0.0,0.0,0.0,0.0,0.0,0.0,0.0,0.0,0.0,-9.261928139816188,2.0906296682166037e-05,-33.736266267840875,-1.641090884604672e-11
0.36600000000000027,settle on raised table,0,0.00010955268999531777,0.08,-0.350543027459661,-0.3287302582461892,0.05499949854445589,0.3031785387204604,0.0,0.0,0.0,0.0,0.0,0.0,0.0,0.0,0.0,0.0,0.0,0.0,0.0,0.0,0.0,0.0,-9.261928139816188,2.0906296682166037e-05,-33.736266267840875,-1.641090884604672e-11
0.36800000000000027,settle on raised table,0,0.00010927547964341464,0.08,-0.35054301108308544,-0.3287302735085941,0.05499956617656603,0.3031785247708643,0.0,0.0,0.0,0.0,0.0,0.0,0.0,0.0,0.0,0.0,0.0,0.0,0.0,0.0,0.0,0.0,-9.261928139816188,2.0906296682166037e-05,-33.736266267840875,-1.641090884604672e-11
0.3700000000000003,settle on raised table,0,0.00010787620507891413,0.08,-0.35054301006699046,-0.3287302583691035,0.0549995480503903,0.30317853994358873,0.0,0.0,0.0,0.0,0.0,0.0,0.0,0.0,0.0,0.0,0.0,0.0,0.0,0.0,0.0,0.0,-9.261928139816188,2.0906296682166037e-05,-33.736266267840875,-1.641090884604672e-11
0.3720000000000003,settle on raised table,0,0.00010846007056705502,0.08,-0.3505430094732322,-0.32873024268655693,0.05499953389432014,0.303178555625065,0.0,0.0,0.0,0.0,0.0,0.0,0.0,0.0,0.0,0.0,0.0,0.0,0.0,0.0,0.0,0.0,-9.261928139816188,2.0906296682166037e-05,-33.736266267840875,-1.641090884604672e-11
0.3740000000000003,settle on raised table,0,0.00010883636884820254,0.08,-0.3505429940852148,-0.32873025771589953,0.05499959264713582,0.30317854183134857,0.0,0.0,0.0,0.0,0.0,0.0,0.0,0.0,0.0,0.0,0.0,0.0,0.0,0.0,0.0,0.0,-9.261928139816188,2.0906296682166037e-05,-33.736266267840875,-1.641090884604672e-11
0.3760000000000003,settle on raised table,0,0.00010777046118689546,0.08,-0.3505429935207969,-0.3287302427256931,0.0549995673251698,0.30317855682028994,0.0,0.0,0.0,0.0,0.0,0.0,0.0,0.0,0.0,0.0,0.0,0.0,0.0,0.0,0.0,0.0,-9.261928139816188,2.0906296682166037e-05,-33.736266267840875,-1.641090884604672e-11
0.3780000000000003,settle on raised table,0,0.00010835632440382,0.08,-0.3505429933537464,-0.3287302271909673,0.05499954776779994,0.3031785723213741,0.0,0.0,0.0,0.0,0.0,0.0,0.0,0.0,0.0,0.0,0.0,0.0,0.0,0.0,0.0,0.0,-9.261928139816188,2.0906296682166037e-05,-33.736266267840875,-1.641090884604672e-11
0.3800000000000003,settle on raised table,0,0.00010832388998289692,0.08,-0.35054299329566835,-0.32873021169567457,0.05499953250788281,0.303178587774712,0.0,0.0,0.0,0.0,0.0,0.0,0.0,0.0,0.0,0.0,0.0,0.0,0.0,0.0,0.0,0.0,-9.261928139816188,2.0906296682166037e-05,-33.736266267840875,-1.641090884604672e-11
0.3820000000000003,settle on raised table,0,0.0001082872714327325,0.08,-0.35054299333588307,-0.32873019624782396,0.054999520484689084,0.3031786031731452,0.0,0.0,0.0,0.0,0.0,0.0,0.0,0.0,0.0,0.0,0.0,0.0,0.0,0.0,0.0,0.0,-9.261928139816188,2.0906296682166037e-05,-33.736266267840875,-1.641090884604672e-11
0.3840000000000003,settle on raised table,0,0.00010825282695097462,0.08,-0.3505429934692666,-0.3287301808453709,0.054999510899856836,0.3031786185191084,0.0,0.0,0.0,0.0,0.0,0.0,0.0,0.0,0.0,0.0,0.0,0.0,0.0,0.0,0.0,0.0,-9.261928139816188,2.0906296682166037e-05,-33.736266267840875,-1.641090884604672e-11
0.3860000000000003,settle on raised table,0,0.00010822036289415268,0.08,-0.3505429936910991,-0.32873016548629796,0.05499950315248758,0.30317863381497817,0.0,0.0,0.0,0.0,0.0,0.0,0.0,0.0,0.0,0.0,0.0,0.0,0.0,0.0,0.0,0.0,-9.261928139816188,2.0906296682166037e-05,-33.736266267840875,-1.641090884604672e-11
0.3880000000000003,settle on raised table,0,0.00010818962271585359,0.08,-0.3505429939969466,-0.3287301501687703,0.05499949679027724,0.303178649062927,0.0,0.0,0.0,0.0,0.0,0.0,0.0,0.0,0.0,0.0,0.0,0.0,0.0,0.0,0.0,0.0,-9.261928139816188,2.0906296682166037e-05,-33.736266267840875,-1.641090884604672e-11
0.3900000000000003,settle on raised table,0,0.00010816039374126485,0.08,-0.3505429943826399,-0.32873013489111735,0.054999491472743835,0.3031786642649429,0.0,0.0,0.0,0.0,0.0,0.0,0.0,0.0,0.0,0.0,0.0,0.0,0.0,0.0,0.0,0.0,-9.261928139816188,2.0906296682166037e-05,-33.736266267840875,-1.641090884604672e-11
0.3920000000000003,settle on raised table,0,0.00010813249956749016,0.08,-0.3505429948442562,-0.3287301196518144,0.05499948694355745,0.30317867942284965,0.0,0.0,0.0,0.0,0.0,0.0,0.0,0.0,0.0,0.0,0.0,0.0,0.0,0.0,0.0,0.0,-9.261928139816188,2.0906296682166037e-05,-33.736266267840875,-1.641090884604672e-11
0.3940000000000003,settle on raised table,0,0.00010810579260024558,0.08,-0.3505429953781025,-0.3287301044494663,0.05499948300971907,0.3031786945383238,0.0,0.0,0.0,0.0,0.0,0.0,0.0,0.0,0.0,0.0,0.0,0.0,0.0,0.0,0.0,0.0,-9.261928139816188,2.0906296682166037e-05,-33.736266267840875,-1.641090884604672e-11
0.3960000000000003,settle on raised table,0,0.00010808014825978727,0.08,-0.35054299598070027,-0.3287300892827937,0.05499947952589295,0.3031787096129102,0.0,0.0,0.0,0.0,0.0,0.0,0.0,0.0,0.0,0.0,0.0,0.0,0.0,0.0,0.0,0.0,-9.261928139816188,2.0906296682166037e-05,-33.736266267840875,-1.641090884604672e-11
0.3980000000000003,settle on raised table,0,0.00010805546048435167,0.08,-0.35054299664877075,-0.3287300741506209,0.05499947638261671,0.3031787246480345,0.0,0.0,0.0,0.0,0.0,0.0,0.0,0.0,0.0,0.0,0.0,0.0,0.0,0.0,0.0,0.0,-9.261928139816188,2.0906296682166037e-05,-33.736266267840875,-1.641090884604672e-11
0.4000000000000003,settle on raised table,0,0.00010803163822747966,0.08,-0.3505429973792221,-0.3287300590518656,0.054999473497429265,0.3031787396450151,0.0,0.0,0.0,0.0,0.0,0.0,0.0,0.0,0.0,0.0,0.0,0.0,0.0,0.0,0.0,0.0,-9.261928139816188,2.0906296682166037e-05,-33.736266267840875,-1.641090884604672e-11
0.4020000000000003,settle on raised table,0,0.00010800860271494081,0.08,-0.35054299816913675,-0.3287300439855294,0.054999470808194395,0.30317875460507304,0.0,0.0,0.0,0.0,0.0,0.0,0.0,0.0,0.0,0.0,0.0,0.0,0.0,0.0,0.0,0.0,-9.261928139816188,2.0906296682166037e-05,-33.736266267840875,-1.641090884604672e-11
0.4040000000000003,settle on raised table,0,0.00010798628528458985,0.08,-0.35054299901576,-0.3287300289506898,0.05499946826807637,0.3031787695293413,0.0,0.0,0.0,0.0,0.0,0.0,0.0,0.0,0.0,0.0,0.0,0.0,0.0,0.0,0.0,0.0,-9.261928139816188,2.0906296682166037e-05,-33.736266267840875,-1.641090884604672e-11
0.4060000000000003,settle on raised table,0,0.00010796462567655397,0.08,-0.3505429999164895,-0.3287300139464931,0.054999465841758785,0.3031787844188723,0.0,0.0,0.0,0.0,0.0,0.0,0.0,0.0,0.0,0.0,0.0,0.0,0.0,0.0,0.0,0.0,-9.261928139816188,2.0906296682166037e-05,-33.736266267840875,-1.641090884604672e-11
0.4080000000000003,settle on raised table,0,0.00010794357066937046,0.08,-0.3505430008688653,-0.3287299989721479,0.05499946350259884,0.30317879927464547,0.0,0.0,0.0,0.0,0.0,0.0,0.0,0.0,0.0,0.0,0.0,0.0,0.0,0.0,0.0,0.0,-9.261928139816188,2.0906296682166037e-05,-33.736266267840875,-1.641090884604672e-11
0.4100000000000003,settle on raised table,0,0.00010792307298672925,0.08,-0.35054300187056076,-0.3287299840269194,0.05499946123048561,0.3031788140975733,0.0,0.0,0.0,0.0,0.0,0.0,0.0,0.0,0.0,0.0,0.0,0.0,0.0,0.0,0.0,0.0,-9.261928139816188,2.0906296682166037e-05,-33.736266267840875,-1.641090884604672e-11
0.4120000000000003,settle on raised table,0,0.00010790309041295303,0.08,-0.35054300291937407,-0.32872996911012453,0.054999459010227965,0.3031788288885073,0.0,0.0,0.0,0.0,0.0,0.0,0.0,0.0,0.0,0.0,0.0,0.0,0.0,0.0,0.0,0.0,-9.261928139816188,2.0906296682166037e-05,-33.736266267840875,-1.641090884604672e-11
0.4140000000000003,settle on raised table,0,0.00010788358507360328,0.08,-0.3505430040132203,-0.3287299542211274,0.05499945683034121,0.3031788436482426,0.0,0.0,0.0,0.0,0.0,0.0,0.0,0.0,0.0,0.0,0.0,0.0,0.0,0.0,0.0,0.0,-9.261928139816188,2.0906296682166037e-05,-33.736266267840875,-1.641090884604672e-11
0.4160000000000003,settle on raised table,0,0.00010786452284412461,0.08,-0.3505430051501241,-0.32872993935933503,0.05499945468213364,0.3031788583775234,0.0,0.0,0.0,0.0,0.0,0.0,0.0,0.0,0.0,0.0,0.0,0.0,0.0,0.0,0.0,0.0,-9.261928139816188,2.0906296682166037e-05,-33.736266267840875,-1.641090884604672e-11
0.4180000000000003,settle on raised table,0,0.00010933641633296845,0.08,-0.35054299259072147,-0.32872995556057044,0.05499954452290393,0.3031788431965754,0.0,0.0,0.0,0.0,0.0,0.0,0.0,0.0,0.0,0.0,0.0,0.0,0.0,0.0,0.0,0.0,-9.261928139816188,2.0906296682166037e-05,-33.736266267840875,-1.641090884604672e-11
0.4200000000000003,settle on raised table,0,0.00010930145937296525,0.08,-0.3505429800149464,-0.3287299721434717,0.05499961096477054,0.30317882763637305,0.0,0.0,0.0,0.0,0.0,0.0,0.0,0.0,0.0,0.0,0.0,0.0,0.0,0.0,0.0,0.0,-9.261928139816188,2.0906296682166037e-05,-33.736266267840875,-1.641090884604672e-11
0.4220000000000003,settle on raised table,0,0.00010933177827242756,0.08,-0.3505429676630782,-0.3287299887634003,0.054999659864239485,0.3031788120219312,0.0,0.0,0.0,0.0,0.0,0.0,0.0,0.0,0.0,0.0,0.0,0.0,0.0,0.0,0.0,0.0,-9.261928139816188,2.0906296682166037e-05,-33.736266267840875,-1.641090884604672e-11
0.4240000000000003,settle on raised table,0,0.00013508881212736452,0.08,-0.3505429556424527,-0.32873003721272565,0.05499981100779107,0.30317876464787596,0.0,0.0,0.0,0.0,0.0,0.0,0.0,0.0,0.0,0.0,0.0,0.0,0.0,0.0,0.0,0.0,-9.261928139816188,2.0906296682166037e-05,-33.736266267840875,-1.641090884604672e-11
0.4260000000000003,settle on raised table,0,0.0001347457083924136,0.08,-0.3505429421589967,-0.3287300855920731,0.05499991737786298,0.30317871745676944,0.0,0.0,0.0,0.0,0.0,0.0,0.0,0.0,0.0,0.0,0.0,0.0,0.0,0.0,0.0,0.0,-9.261928139816188,2.0906296682166037e-05,-33.736266267840875,-1.641090884604672e-11
0.4280000000000003,settle on raised table,0,0.0002701824419225824,0.07999964189731135,-0.3505430349935939,-0.32873018581958496,0.05500035810268865,0.30317861034705995,0.0,0.0,0.0,0.0,0.0,0.0,0.0,0.0,0.0,0.0,0.0,0.0,0.0,0.0,0.0,0.0,-9.261928139816188,2.0906296682166037e-05,-33.736266267840875,-1.641090884604672e-11
0.4300000000000003,settle on raised table,0,0.0002577494278774061,0.07999931934358749,-0.35054309984745935,-0.3287302774531271,0.05500068065641251,0.3031785139704491,0.0,0.0,0.0,0.0,0.0,0.0,0.0,0.0,0.0,0.0,0.0,0.0,0.0,0.0,0.0,0.0,-9.261928139816188,2.0906296682166037e-05,-33.736266267840875,-1.641090884604672e-11
0.43200000000000033,settle on raised table,0,0.0,0.08,-0.3505431647013248,-0.32873036908666925,0.05496176321013637,0.30317841759384917,0.0,0.0,0.0,0.0,0.0,0.0,0.0,0.0,0.0,0.0,0.0,0.0,0.0,0.0,0.0,0.0,-9.261928139816188,2.0906296682166037e-05,-33.736266267840875,-1.641090884604672e-11
0.43400000000000033,settle on raised table,0,0.0002680087262283716,0.08,-0.35054319197280565,-0.328730300669091,0.054971090381588206,0.30317848369635797,0.0,0.0,0.0,0.0,0.0,0.0,0.0,0.0,0.0,0.0,0.0,0.0,0.0,0.0,0.0,0.0,-9.261928139816188,2.0906296682166037e-05,-33.736266267840875,-1.641090884604672e-11
0.43600000000000033,settle on raised table,0,0.0001060715602693822,0.08,-0.3505431728095462,-0.32873031094237226,0.05497820093008265,0.3031784749365261,0.0,0.0,0.0,0.0,0.0,0.0,0.0,0.0,0.0,0.0,0.0,0.0,0.0,0.0,0.0,0.0,-9.261928139816188,2.0906296682166037e-05,-33.736266267840875,-1.641090884604672e-11
0.43800000000000033,settle on raised table,0,0.00010767016224452889,0.08,-0.35054315275470727,-0.32873032301473437,0.05498354819768552,0.30317846445198876,0.0,0.0,0.0,0.0,0.0,0.0,0.0,0.0,0.0,0.0,0.0,0.0,0.0,0.0,0.0,0.0,-9.261928139816188,2.0906296682166037e-05,-33.736266267840875,-1.641090884604672e-11
0.44000000000000034,settle on raised table,0,0.0001086639324614574,0.08,-0.3505431326847997,-0.3287303354589954,0.0549875694519924,0.30317845359783463,0.0,0.0,0.0,0.0,0.0,0.0,0.0,0.0,0.0,0.0,0.0,0.0,0.0,0.0,0.0,0.0,-9.261928139816188,2.0906296682166037e-05,-33.736266267840875,-1.641090884604672e-11
0.44200000000000034,settle on raised table,0,0.00011706842078467701,0.08,-0.3505431439799691,-0.32873030452104113,0.054990476070244564,0.3031784835691461,0.0,0.0,0.0,0.0,0.0,0.0,0.0,0.0,0.0,0.0,0.0,0.0,0.0,0.0,0.0,0.0,-9.261928139816188,2.0906296682166037e-05,-33.736266267840875,-1.641090884604672e-11
0.44400000000000034,settle on raised table,0,0.0001099489758358564,0.08,-0.35054312450823305,-0.32873031674737674,0.05499278185869428,0.3031784728859842,0.0,0.0,0.0,0.0,0.0,0.0,0.0,0.0,0.0,0.0,0.0,0.0,0.0,0.0,0.0,0.0,-9.261928139816188,2.0906296682166037e-05,-33.736266267840875,-1.641090884604672e-11
0.44600000000000034,settle on raised table,0,0.00011019186970815422,0.08,-0.3505431047997772,-0.32873033009861796,0.05499451512935903,0.303178461099605,0.0,0.0,0.0,0.0,0.0,0.0,0.0,0.0,0.0,0.0,0.0,0.0,0.0,0.0,0.0,0.0,-9.261928139816188,2.0906296682166037e-05,-33.736266267840875,-1.641090884604672e-11
0.44800000000000034,settle on raised table,0,0.00011876884835746444,0.08,-0.35054311633096746,-0.3287302986529618,0.05499570214172327,0.3031784915588343,0.0,0.0,0.0,0.0,0.0,0.0,0.0,0.0,0.0,0.0,0.0,0.0,0.0,0.0,0.0,0.0,-9.261928139816188,2.0906296682166037e-05,-33.736266267840875,-1.641090884604672e-11
0.45000000000000034,settle on raised table,0,0.00011058366994467331,0.08,-0.35054309744062073,-0.3287303116173641,0.05499671262497395,0.3031784800948379,0.0,0.0,0.0,0.0,0.0,0.0,0.0,0.0,0.0,0.0,0.0,0.0,0.0,0.0,0.0,0.0,-9.261928139816188,2.0906296682166037e-05,-33.736266267840875,-1.641090884604672e-11
0.45200000000000035,settle on raised table,0,0.00011929884032778528,0.08,-0.3505431090529178,-0.3287302800307548,0.05499735423875797,0.3031785106883224,0.0,0.0,0.0,0.0,0.0,0.0,0.0,0.0,0.0,0.0,0.0,0.0,0.0,0.0,0.0,0.0,-9.261928139816188,2.0906296682166037e-05,-33.736266267840875,-1.641090884604672e-11
0.45400000000000035,settle on raised table,0,0.00011065775182284916,0.08,-0.35054309054673244,-0.32873029329434483,0.054997955926344815,0.3031784988963129,0.0,0.0,0.0,0.0,0.0,0.0,0.0,0.0,0.0,0.0,0.0,0.0,0.0,0.0,0.0,0.0,-9.261928139816188,2.0906296682166037e-05,-33.736266267840875,-1.641090884604672e-11
0.45600000000000035,settle on raised table,0,0.00011051075906083033,0.08,-0.35054307188167266,-0.3287303074806582,0.05499840714514023,0.30317848619663934,0.0,0.0,0.0,0.0,0.0,0.0,0.0,0.0,0.0,0.0,0.0,0.0,0.0,0.0,0.0,0.0,-9.261928139816188,2.0906296682166037e-05,-33.736266267840875,-1.641090884604672e-11
0.45800000000000035,settle on raised table,0,0.00011993552598575206,0.08,-0.35054308294966724,-0.3287302754775342,0.054998629454614416,0.3031785172475015,0.0,0.0,0.0,0.0,0.0,0.0,0.0,0.0,0.0,0.0,0.0,0.0,0.0,0.0,0.0,0.0,-9.261928139816188,2.0906296682166037e-05,-33.736266267840875,-1.641090884604672e-11
0.46000000000000035,settle on raised table,0,0.00011041648502206462,0.08,-0.3505430651715415,-0.3287302891431554,0.05499891428053137,0.3031785049983376,0.0,0.0,0.0,0.0,0.0,0.0,0.0,0.0,0.0,0.0,0.0,0.0,0.0,0.0,0.0,0.0,-9.261928139816188,2.0906296682166037e-05,-33.736266267840875,-1.641090884604672e-11
0.46200000000000035,settle on raised table,0,0.00011018987589056868,0.08,-0.35054304726595403,-0.3287303037248847,0.05499912713798987,0.30317849184567447,0.0,0.0,0.0,0.0,0.0,0.0,0.0,0.0,0.0,0.0,0.0,0.0,0.0,0.0,0.0,0.0,-9.261928139816188,2.0906296682166037e-05,-33.736266267840875,-1.641090884604672e-11
0.46400000000000036,settle on raised table,0,0.0001201129896090488,0.08,-0.35054305839447114,-0.32873027168185043,0.05499917150555467,0.3031785229316436,0.0,0.0,0.0,0.0,0.0,0.0,0.0,0.0,0.0,0.0,0.0,0.0,0.0,0.0,0.0,0.0,-9.261928139816188,2.0906296682166037e-05,-33.736266267840875,-1.641090884604672e-11
0.46600000000000036,settle on raised table,0,0.00011001842392916172,0.08,-0.35054304136071296,-0.32873028569545143,0.05499932109624781,0.3031785102779526,0.0,0.0,0.0,0.0,0.0,0.0,0.0,0.0,0.0,0.0,0.0,0.0,0.0,0.0,0.0,0.0,-9.261928139816188,2.0906296682166037e-05,-33.736266267840875,-1.641090884604672e-11
0.46800000000000036,settle on raised table,0,0.00012014734757672123,0.08,-0.3505430525156917,-0.328730253651473,0.05499931611609672,0.3031785413628155,0.0,0.0,0.0,0.0,0.0,0.0,0.0,0.0,0.0,0.0,0.0,0.0,0.0,0.0,0.0,0.0,-9.261928139816188,2.0906296682166037e-05,-33.736266267840875,-1.641090884604672e-11
0.47000000000000036,settle on raised table,0,0.00010978372789461341,0.08,-0.35054303588036145,-0.3287302678578119,0.05499943027782026,0.3031785284861383,0.0,0.0,0.0,0.0,0.0,0.0,0.0,0.0,0.0,0.0,0.0,0.0,0.0,0.0,0.0,0.0,-9.261928139816188,2.0906296682166037e-05,-33.736266267840875,-1.641090884604672e-11
0.47200000000000036,settle on raised table,0,0.00010951377872318726,0.08,-0.35054301912997354,-0.3287302829634756,0.054999514790475365,0.303178514721735,0.0,0.0,0.0,0.0,0.0,0.0,0.0,0.0,0.0,0.0,0.0,0.0,0.0,0.0,0.0,0.0,-9.261928139816188,2.0906296682166037e-05,-33.736266267840875,-1.641090884604672e-11
0.47400000000000037,settle on raised table,0,0.00012018549170824861,0.08,-0.3505430303216213,-0.32873025092600233,0.054999462198052504,0.3031785457972742,0.0,0.0,0.0,0.0,0.0,0.0,0.0,0.0,0.0,0.0,0.0,0.0,0.0,0.0,0.0,0.0,-9.261928139816188,2.0906296682166037e-05,-33.736266267840875,-1.641090884604672e-11
0.47600000000000037,settle on raised table,0,0.0001093374946310552,0.08,-0.350543014386785,-0.3287302654073598,0.054999539297737855,0.3031785325922067,0.0,0.0,0.0,0.0,0.0,0.0,0.0,0.0,0.0,0.0,0.0,0.0,0.0,0.0,0.0,0.0,-9.261928139816188,2.0906296682166037e-05,-33.736266267840875,-1.641090884604672e-11
0.47800000000000037,settle on raised table,0,0.00012017817777671628,0.08,-0.35054302559839645,-0.32873023337908375,0.05499947932038855,0.30317856365703144,0.0,0.0,0.0,0.0,0.0,0.0,0.0,0.0,0.0,0.0,0.0,0.0,0.0,0.0,0.0,0.0,-9.261928139816188,2.0906296682166037e-05,-33.736266267840875,-1.641090884604672e-11
0.48000000000000037,settle on raised table,0,0.00010910938295283385,0.08,-0.3505430100154948,-0.3287302480112792,0.05499955262089114,0.303178550274349,0.0,0.0,0.0,0.0,0.0,0.0,0.0,0.0,0.0,0.0,0.0,0.0,0.0,0.0,0.0,0.0,-9.261928139816188,2.0906296682166037e-05,-33.736266267840875,-1.641090884604672e-11
0.4820000000000004,settle on raised table,0,0.00010780575581956713,0.08,-0.35054300921430764,-0.328730232957313,0.05499953696284776,0.30317856534517795,0.0,0.0,0.0,0.0,0.0,0.0,0.0,0.0,0.0,0.0,0.0,0.0,0.0,0.0,0.0,0.0,-9.261928139816188,2.0906296682166037e-05,-33.736266267840875,-1.641090884604672e-11
0.4840000000000004,settle on raised table,0,0.00010839191945452684,0.08,-0.35054300881502237,-0.3287302173671748,0.054999524671915545,0.30317858091947647,0.0,0.0,0.0,0.0,0.0,0.0,0.0,0.0,0.0,0.0,0.0,0.0,0.0,0.0,0.0,0.0,-9.261928139816188,2.0906296682166037e-05,-33.736266267840875,-1.641090884604672e-11
0.4860000000000004,settle on raised table,0,0.00010835855572178434,0.08,-0.3505430085305355,-0.32873020181969353,0.05499951487404036,0.30317859644236383,0.0,0.0,0.0,0.0,0.0,0.0,0.0,0.0,0.0,0.0,0.0,0.0,0.0,0.0,0.0,0.0,-9.261928139816188,2.0906296682166037e-05,-33.736266267840875,-1.641090884604672e-11
0.4880000000000004,settle on raised table,0,0.00010832082387014816,0.08,-0.3505430083500631,-0.32873018632263556,0.05499950695556187,0.30317861190693157,0.0,0.0,0.0,0.0,0.0,0.0,0.0,0.0,0.0,0.0,0.0,0.0,0.0,0.0,0.0,0.0,-9.261928139816188,2.0906296682166037e-05,-33.736266267840875,-1.641090884604672e-11
0.4900000000000004,settle on raised table,0,0.00010828510972309294,0.08,-0.35054300826834295,-0.32873017087380096,0.054999500454479565,0.30317862731578,0.0,0.0,0.0,0.0,0.0,0.0,0.0,0.0,0.0,0.0,0.0,0.0,0.0,0.0,0.0,0.0,-9.261928139816188,2.0906296682166037e-05,-33.736266267840875,-1.641090884604672e-11
0.4920000000000004,settle on raised table,0,0.00010825128389190857,0.08,-0.35054300828051255,-0.3287301554710212,0.05499949502295908,0.3031786426714473,0.0,0.0,0.0,0.0,0.0,0.0,0.0,0.0,0.0,0.0,0.0,0.0,0.0,0.0,0.0,0.0,-9.261928139816188,2.0906296682166037e-05,-33.736266267840875,-1.641090884604672e-11
0.4940000000000004,settle on raised table,0,0.00010821913703483251,0.08,-0.35054300838199304,-0.32873014011231516,0.054999490399087234,0.30317865797626303,0.0,0.0,0.0,0.0,0.0,0.0,0.0,0.0,0.0,0.0,0.0,0.0,0.0,0.0,0.0,0.0,-9.261928139816188,2.0906296682166037e-05,-33.736266267840875,-1.641090884604672e-11
0.4960000000000004,settle on raised table,0,0.00010818849025078551,0.08,-0.35054300856846937,-0.3287301247958719,0.05499948638561767,0.3031786732323666,0.0,0.0,0.0,0.0,0.0,0.0,0.0,0.0,0.0,0.0,0.0,0.0,0.0,0.0,0.0,0.0,-9.261928139816188,2.0906296682166037e-05,-33.736266267840875,-1.641090884604672e-11
0.4980000000000004,settle on raised table,0,0.00010815919093609412,0.08,-0.35054300883587314,-0.3287301095200326,0.05499948283397678,0.3031786884417264,0.0,0.0,0.0,0.0,0.0,0.0,0.0,0.0,0.0,0.0,0.0,0.0,0.0,0.0,0.0,0.0,-9.261928139816188,2.0906296682166037e-05,-33.736266267840875,-1.641090884604672e-11
0.5000000000000003,settle on raised table,0,0.00010813110792260172,0.08,-0.35054300918036685,-0.32873009428327515,0.05499947963222771,0.3031787036061572,0.0,0.0,0.0,0.0,0.0,0.0,0.0,0.0,0.0,0.0,0.0,0.0,0.0,0.0,0.0,0.0,-9.261928139816188,2.0906296682166037e-05,-33.736266267840875,-1.641090884604672e-11
0.5020000000000003,settle on raised table,0,0.00010810412762770434,0.08,-0.3505430095983291,-0.3287300790842001,0.054999476696012815,0.3031787187273342,0.0,0.0,0.0,0.0,0.0,0.0,0.0,0.0,0.0,0.0,0.0,0.0,0.0,0.0,0.0,0.0,-9.261928139816188,2.0906296682166037e-05,-33.736266267840875,-1.641090884604672e-11
0.5040000000000003,settle on raised table,0,0.00010807815101029526,0.08,-0.3505430100863408,-0.32873006392151877,0.054999473961737176,0.3031787338068068,0.0,0.0,0.0,0.0,0.0,0.0,0.0,0.0,0.0,0.0,0.0,0.0,0.0,0.0,0.0,0.0,-9.261928139816188,2.0906296682166037e-05,-33.736266267840875,-1.641090884604672e-11
0.5060000000000003,settle on raised table,0,0.00010805309115144046,0.08,-0.35054301064117216,-0.3287300487940425,0.05499947138143868,0.30317874884601015,0.0,0.0,0.0,0.0,0.0,0.0,0.0,0.0,0.0,0.0,0.0,0.0,0.0,0.0,0.0,0.0,-9.261928139816188,2.0906296682166037e-05,-33.736266267840875,-1.641090884604672e-11
0.5080000000000003,settle on raised table,0,0.00010802887131715191,0.08,-0.35054301125977066,-0.3287300337006731,0.05499946891892708,0.3031787638462751,0.0,0.0,0.0,0.0,0.0,0.0,0.0,0.0,0.0,0.0,0.0,0.0,0.0,0.0,0.0,0.0,-9.261928139816188,2.0906296682166037e-05,-33.736266267840875,-1.641090884604672e-11
0.5100000000000003,settle on raised table,0,0.00010800542339784317,0.08,-0.3505430119392501,-0.3287300186403946,0.05499946654687804,0.3031787788088381,0.0,0.0,0.0,0.0,0.0,0.0,0.0,0.0,0.0,0.0,0.0,0.0,0.0,0.0,0.0,0.0,-9.261928139816188,2.0906296682166037e-05,-33.736266267840875,-1.641090884604672e-11
0.5120000000000003,settle on raised table,0,0.00010798268664151694,0.08,-0.3505430126768797,-0.3287300036122655,0.05499946424464581,0.3031787937348489,0.0,0.0,0.0,0.0,0.0,0.0,0.0,0.0,0.0,0.0,0.0,0.0,0.0,0.0,0.0,0.0,-9.261928139816188,2.0906296682166037e-05,-33.736266267840875,-1.641090884604672e-11
0.5140000000000003,settle on raised table,0,0.0001079606066179583,0.08,-0.35054301347007494,-0.32872998861541236,0.05499946199661673,0.30317880862537844,0.0,0.0,0.0,0.0,0.0,0.0,0.0,0.0,0.0,0.0,0.0,0.0,0.0,0.0,0.0,0.0,-9.261928139816188,2.0906296682166037e-05,-33.736266267840875,-1.641090884604672e-11
0.5160000000000003,settle on raised table,0,0.00010793913436552047,0.08,-0.3505430143163879,-0.3287299736490235,0.05499945979096972,0.3031788234814253,0.0,0.0,0.0,0.0,0.0,0.0,0.0,0.0,0.0,0.0,0.0,0.0,0.0,0.0,0.0,0.0,-9.261928139816188,2.0906296682166037e-05,-33.736266267840875,-1.641090884604672e-11
0.5180000000000003,settle on raised table,0,0.00010791822568289825,0.08,-0.3505430152134992,-0.32872995871234384,0.054999457618743024,0.3031788383039217,0.0,0.0,0.0,0.0,0.0,0.0,0.0,0.0,0.0,0.0,0.0,0.0,0.0,0.0,0.0,0.0,-9.261928139816188,2.0906296682166037e-05,-33.736266267840875,-1.641090884604672e-11
0.5200000000000004,settle on raised table,0,0.00010789784053660248,0.08,-0.35054301615920985,-0.32872994380466997,0.05499945547313155,0.30317885309373915,0.0,0.0,0.0,0.0,0.0,0.0,0.0,0.0,0.0,0.0,0.0,0.0,0.0,0.0,0.0,0.0,-9.261928139816188,2.0906296682166037e-05,-33.736266267840875,-1.641090884604672e-11
0.5220000000000004,settle on raised table,0,0.00010926122438678126,0.08,-0.35054300045030196,-0.3287299596415686,0.05499954676356428,0.3031788385197131,0.0,0.0,0.0,0.0,0.0,0.0,0.0,0.0,0.0,0.0,0.0,0.0,0.0,0.0,0.0,0.0,-9.261928139816188,2.0906296682166037e-05,-33.736266267840875,-1.641090884604672e-11
0.5240000000000004,settle on raised table,0,0.00013473194719617368,0.08,-0.3505429857311967,-0.32873000749366665,0.054999732134825806,0.3031787919498751,0.0,0.0,0.0,0.0,0.0,0.0,0.0,0.0,0.0,0.0,0.0,0.0,0.0,0.0,0.0,0.0,-9.261928139816188,2.0906296682166037e-05,-33.736266267840875,-1.641090884604672e-11
0.5260000000000004,settle on raised table,0,0.00013455243473735754,0.08,-0.3505429712088011,-0.32873005559947394,0.05499986362686665,0.30317874511187004,0.0,0.0,0.0,0.0,0.0,0.0,0.0,0.0,0.0,0.0,0.0,0.0,0.0,0.0,0.0,0.0,-9.261928139816188,2.0906296682166037e-05,-33.736266267840875,-1.641090884604672e-11
0.5280000000000004,settle on raised table,0,0.00013457382472913142,0.08,-0.3505429567665552,-0.32873010369856265,0.05499995466940124,0.3031786982743633,0.0,0.0,0.0,0.0,0.0,0.0,0.0,0.0,0.0,0.0,0.0,0.0,0.0,0.0,0.0,0.0,-9.261928139816188,2.0906296682166037e-05,-33.736266267840875,-1.641090884604672e-11
0.5300000000000004,settle on raised table,0,0.0002684490700714493,0.07999961788455322,-0.3505430446130072,-0.328730202579282,0.055000382115446785,0.3031785928933461,0.0,0.0,0.0,0.0,0.0,0.0,0.0,0.0,0.0,0.0,0.0,0.0,0.0,0.0,0.0,0.0,-9.261928139816188,2.0906296682166037e-05,-33.736266267840875,-1.641090884604672e-11
0.5320000000000004,settle on raised table,0,0.0002562678635364282,0.07999930534804156,-0.35054310553638346,-0.32873029269406545,0.055000694651958434,0.3031784983350445,0.0,0.0,0.0,0.0,0.0,0.0,0.0,0.0,0.0,0.0,0.0,0.0,0.0,0.0,0.0,0.0,-9.261928139816188,2.0906296682166037e-05,-33.736266267840875,-1.641090884604672e-11
0.5340000000000004,settle on raised table,0,0.0,0.08,-0.3505431664597597,-0.3287303828088489,0.05496176718847009,0.3031784037767525,0.0,0.0,0.0,0.0,0.0,0.0,0.0,0.0,0.0,0.0,0.0,0.0,0.0,0.0,0.0,0.0,-9.261928139816188,2.0906296682166037e-05,-33.736266267840875,-1.641090884604672e-11
0.5360000000000004,settle on raised table,0,0.0002680851022238591,0.08,-0.35054319366007175,-0.3287303143228091,0.05497109450200072,0.303178469953024,0.0,0.0,0.0,0.0,0.0,0.0,0.0,0.0,0.0,0.0,0.0,0.0,0.0,0.0,0.0,0.0,-9.261928139816188,2.0906296682166037e-05,-33.736266267840875,-1.641090884604672e-11
0.5380000000000004,settle on raised table,0,0.00010621878244401571,0.08,-0.35054317427987997,-0.32873032443980116,0.05497820366155044,0.30317846136579685,0.0,0.0,0.0,0.0,0.0,0.0,0.0,0.0,0.0,0.0,0.0,0.0,0.0,0.0,0.0,0.0,-9.261928139816188,2.0906296682166037e-05,-33.736266267840875,-1.641090884604672e-11
0.5400000000000004,settle on raised table,0,0.00010782385580739244,0.08,-0.35054315400418434,-0.3287303363583389,0.05498354987094341,0.3031784510517104,0.0,0.0,0.0,0.0,0.0,0.0,0.0,0.0,0.0,0.0,0.0,0.0,0.0,0.0,0.0,0.0,-9.261928139816188,2.0906296682166037e-05,-33.736266267840875,-1.641090884604672e-11
0.5420000000000004,settle on raised table,0,0.00010881691621017046,0.08,-0.3505431337132148,-0.3287303486525206,0.05498757031472911,0.3031784403642892,0.0,0.0,0.0,0.0,0.0,0.0,0.0,0.0,0.0,0.0,0.0,0.0,0.0,0.0,0.0,0.0,-9.261928139816188,2.0906296682166037e-05,-33.736266267840875,-1.641090884604672e-11
0.5440000000000004,settle on raised table,0,0.00011708669400427866,0.08,-0.35054314500426287,-0.32873031769592986,0.0549904778216831,0.3031784703545002,0.0,0.0,0.0,0.0,0.0,0.0,0.0,0.0,0.0,0.0,0.0,0.0,0.0,0.0,0.0,0.0,-9.261928139816188,2.0906296682166037e-05,-33.736266267840875,-1.641090884604672e-11
0.5460000000000004,settle on raised table,0,0.00011008755967332158,0.08,-0.3505431253240967,-0.32873032978480676,0.05499278276231094,0.30317845982451114,0.0,0.0,0.0,0.0,0.0,0.0,0.0,0.0,0.0,0.0,0.0,0.0,0.0,0.0,0.0,0.0,-9.261928139816188,2.0906296682166037e-05,-33.736266267840875,-1.641090884604672e-11
0.5480000000000004,settle on raised table,0,0.00011834950088928376,0.08,-0.35054313678426835,-0.32873029844637885,0.05499439820636524,0.3031784901823293,0.0,0.0,0.0,0.0,0.0,0.0,0.0,0.0,0.0,0.0,0.0,0.0,0.0,0.0,0.0,0.0,-9.261928139816188,2.0906296682166037e-05,-33.736266267840875,-1.641090884604672e-11
0.5500000000000004,align gripper center to object center using joint1/joint2 only,0,0.00011065157261956192,0.08,-0.35054311742133387,-0.32873031109900175,0.05499573257114635,0.3031784790657404,5.726007109895577e-09,-6.480567244217638e-09,5.648097442801959e-09,-3.848462248396283e-09,-1.2421626024690925e-09,4.146628996881343e-09,5.648097442801959e-09,3.848462248396283e-09,6.599565020218532e-10,7.056183717646841e-08,7.04398916359236e-08,6.8345933603044295e-09,4.146628996881343e-09,2.0733144984406714e-06,0.0019833657364042127,-0.0007811944880299221,-9.261740316206625,-0.00010560862416021294,-33.736266276821986,9.734097120733747e-05
0.5520000000000004,align gripper center to object center using joint1/joint2 only,0,0.0001106793530642301,0.08,-0.350543097853856,-0.32873032469811475,0.05499673499648041,0.30317846702132545,4.957722528056603e-08,-5.591018839606284e-08,2.3514986868463676e-08,-2.992299326259683e-08,-2.5151029370974518e-09,3.4017777002523965e-08,2.3514986868463676e-08,2.992299326259683e-08,5.414097362949488e-09,5.559650392711974e-07,5.549233422191128e-07,3.805706416971013e-08,3.4017777002523965e-08,1.493557400282131e-05,0.013705860754636888,-0.0053063343011381,-9.260864663366101,-0.00071013744296876,-33.73620382182836,0.0006119119466694713
0.5540000000000004,align gripper center to object center using joint1/joint2 only,0,0.0001193138412277719,0.08,-0.3505431094554837,-0.32873029310374985,0.05499737218200183,0.30317849762336774,1.9384774479060128e-07,-2.1751087192026056e-07,7.188742716773197e-08,-9.74801931288663e-08,-4.258647179749105e-09,1.1912009786448887e-07,7.188742716773197e-08,9.74801931288663e-08,1.895855239672373e-08,1.8327928536813356e-06,1.8289177255388305e-06,1.2112056075347835e-07,1.1912009786448887e-07,4.255116043098245e-05,0.036497771782862475,-0.013646554905126524,-9.259260474572686,-0.0013409845607810834,-33.73628483039652,0.00135321244465452
0.5560000000000004,align gripper center to object center using joint1/joint2 only,0,0.0001107833010873698,0.08,-0.3505430907631175,-0.32873030625633326,0.05499796896102803,0.303178485956437,5.273004543292042e-07,-5.88561992344138e-07,1.6808483534199302e-07,-2.2538108913754828e-07,-6.838947411255662e-09,2.907217147584819e-07,1.6808483534199302e-07,2.2538108913754828e-07,4.626979796796442e-08,4.235495138362762e-06,4.22550588115346e-06,2.811568018255514e-07,2.907217147584819e-07,8.580080844699651e-05,0.06971533823912487,-0.024906776360514204,-9.257513636702495,-0.0019670677888157457,-33.73646100524948,0.0021925908672001232
0.5580000000000004,align gripper center to object center using joint1/joint2 only,0,0.00011983213328786665,0.08,-0.3505431017975287,-0.32873027426870494,0.05499829924045968,0.3031785169944491,1.1626479665351144e-06,-1.2908574934482787e-06,3.279527971736705e-07,-4.322344826588965e-07,-1.0542160294180972e-08,5.804146794168885e-07,3.279527971736705e-07,4.322344826588965e-07,9.237586527229557e-08,8.06076458543209e-06,8.039841074403995e-06,5.425676779660198e-07,5.804146794168885e-07,0.00014484648232920329,0.11281546860252098,-0.038304350565103853,-9.255681569405363,-0.0026026248723450716,-33.736731757430235,0.0031011980664470955
0.5600000000000004,align gripper center to object center using joint1/joint2 only,0,0.00011068900712291567,0.08,-0.3505430835257749,-0.3287302876947768,0.05499866674255633,0.30317850502230725,2.234281420683894e-06,-2.467540474214061e-06,5.657630816184625e-07,-7.362641999120191e-07,-1.5580872002393376e-08,1.0196694502031681e-06,5.657630816184625e-07,7.362641999120191e-07,1.6228543331962943e-07,1.3571171753210539e-05,1.3532811125832723e-05,9.285326254873895e-07,1.0196694502031681e-06,0.00021962738539313978,0.16528965571522167,-0.05315008105919315,-9.253792054864048,-0.0032512478862950487,-33.73709356554187,0.004070689096379134
0.5620000000000004,align gripper center to object center using joint1/joint2 only,0,0.00011048077215467177,0.08,-0.3505430651163867,-0.3287303020417481,0.05499894177545638,0.30317849214267645,3.896208323262925e-06,-4.2802665696409825e-06,8.942549496345391e-07,-1.155245439254285e-06,-2.210433340308858e-08,1.6396101094953386e-06,8.942549496345391e-07,1.155245439254285e-06,2.609520536696269e-07,2.0998474782810765e-05,2.093436461641911e-05,1.460918868337218e-06,1.6396101094953386e-06,0.0003099703296460853,0.2266573768072273,-0.06883907150865252,-9.251860832779359,-0.003917622284848611,-33.737541794147134,0.005096866278960096
0.5640000000000004,align gripper center to object center using joint1/joint2 only,0,0.00012006352874621676,0.08,-0.3505430762104706,-0.328730270009919,0.054999031506376854,0.30317852322013883,6.320171038719305e-06,-6.906652773073147e-06,1.3247264995168115e-06,-1.7064397599917125e-06,-3.020911923226794e-08,2.4708513076824553e-06,1.3247264995168115e-06,1.7064397599917125e-06,3.9324819926273637e-07,3.054660628446906e-05,3.0446511283128793e-05,2.160286312737883e-06,2.4708513076824553e-06,0.00041562059909355825,0.29646118858416587,-0.08484107473591203,-9.249898159348046,-0.0046053074943148645,-33.73807135447895,0.006176362746236575
0.5660000000000004,align gripper center to object center using joint1/joint2 only,0,0.00011032468945193232,0.08,-0.35054305868821933,-0.3287302838132126,0.05499921661291085,0.3031785108139185,9.693917795656969e-06,-1.053796918305228e-05,1.8671417934252052e-06,-2.4065406031627656e-06,-3.994897460389402e-08,3.5433621866641874e-06,1.8671417934252052e-06,2.4065406031627656e-06,5.639436071725126e-07,4.2394379778200297e-05,4.2246041485474075e-05,3.0459245150571443e-06,3.5433621866641874e-06,0.000536255439490866,0.3742621956565041,-0.10069000228952325,-9.247911519404733,-0.0053172845699285985,-33.73867699473513,0.007305964767649171
0.5680000000000004,align gripper center to object center using joint1/joint2 only,0,0.0001100742011003444,0.08,-0.3505430410440957,-0.32873029852756175,0.05499935445514668,0.30317849750880405,1.4219595352564127e-05,-1.5377027954689174e-05,2.530240568621907e-06,-3.271624898026171e-06,-5.134350691049094e-08,4.886347873387675e-06,2.530240568621907e-06,3.271624898026171e-06,7.776864177162192e-07,5.669796553365539e-05,5.648701532313258e-05,4.135897340177203e-06,4.886347873387675e-06,0.0006714928433617436,0.4596344891675644,-0.11597305036035081,-9.245906833613764,-0.0060559557926696695,-33.73935345171489,0.008482468557059072
0.5700000000000004,align gripper center to object center using joint1/joint2 only,0,0.00012016449134255168,0.08,-0.350543052190677,-0.32873026647635206,0.05499934233752351,0.3031785286015262,2.0112228708692704e-05,-2.163621972192154e-05,3.32164615897874e-06,-4.31710951858987e-06,-6.438576042532183e-08,6.528144268829948e-06,3.32164615897874e-06,4.31710951858987e-06,1.038986429601313e-06,7.359319098765742e-05,7.330307696237018e-05,5.447088011126447e-06,6.528144268829948e-06,0.0008208981977211365,0.5521582041437519,-0.13031936850677478,-9.243889014300123,-0.006823252717387367,-33.74009554097936,0.009702640944140185
0.5720000000000004,align gripper center to object center using joint1/joint2 only,0,0.00010988275316601194,0.08,-0.35054303540933696,-0.3287302806064255,0.05499944948799029,0.30317851581218264,2.7598249917050392e-05,-2.9535644585011256e-05,4.247971355865811e-06,-5.557710815099739e-06,-7.904885924950697e-08,8.49612293331739e-06,4.247971355865811e-06,5.557710815099739e-06,1.3521999619538761e-06,9.319772410107815e-05,9.280965290702601e-05,6.995241964688071e-06,8.49612293331739e-06,0.0009839893322437213,0.6514111059897693,-0.14338857699404997,-9.241862218894799,-0.007620722505773916,-33.74089821700694,0.010963196812620299
0.5740000000000004,align gripper center to object center using joint1/joint2 only,0,0.00012017426845854879,0.08,-0.3505430465795018,-0.32873024856065164,0.0549994125172022,0.3031785468976604,3.691403702060371e-05,-3.9301284950027355e-05,5.3149239308852815e-06,-7.007405877742945e-06,-9.529193732269218e-08,1.0816603235433027e-05,5.3149239308852815e-06,7.007405877742945e-06,1.7215158723829543e-06,0.00011561319733269765,0.00011510609233197218,8.795007306791929e-06,1.0816603235433027e-05,0.001160240151057818,0.7569591081529872,-0.1548599067769546,-9.239829958919646,-0.008449615447246027,-33.74175661979374,0.012260776645533409
0.5760000000000004,align gripper center to object center using joint1/joint2 only,0,0.00010963907468245201,0.08,-0.3505430301879307,-0.3287302628720809,0.05499950268262246,0.3031785338973484,4.830442787447785e-05,-5.1163174255033706e-05,6.527414338084015e-06,-8.679394772011775e-06,-1.1306553887902502e-07,1.3514769378325762e-05,6.527414338084015e-06,8.679394772011775e-06,2.1509423513075263e-06,0.00014092732215854274,0.00014027779988090902,1.0859973828212023e-05,1.3514769378325762e-05,0.0013490830714463675,0.8683468056414407,-0.1644233392633561,-9.237795144654944,-0.009310962512730949,-33.74266611871073,0.013591923614027175
0.5780000000000004,align gripper center to object center using joint1/joint2 only,0,0.0001093629350781377,0.08,-0.3505430136831012,-0.3287302780794796,0.05499956915354343,0.3031785200125166,6.202118486464765e-05,-6.535353225266472e-05,7.889667955716805e-06,-1.0586063946978174e-05,-1.3231658774699461e-07,1.6614590708428712e-05,7.889667955716805e-06,1.0586063946978174e-05,2.6442942386951048e-06,0.00016921602589004933,0.0001683983930850091,1.3202712234271249e-05,1.6614590708428712e-05,0.0015499106650514747,0.9850899589297747,-0.17177467603614782,-9.235760113533496,-0.01020563421923558,-33.743622361618336,0.01495306501320367
0.5800000000000004,align gripper center to object center using joint1/joint2 only,0,0.00010790128741387571,0.08,-0.35054301259240284,-0.32873026290767665,0.054999550505197656,0.3031785352232286,7.83214072232461e-05,-8.210486607648121e-05,9.405343107253593e-06,-1.2738952258847244e-05,-1.5299290167451005e-07,2.013874495811963e-05,9.405343107253593e-06,1.2738952258847244e-05,3.2051808077517237e-06,0.0002005456119368156,0.00019953188571910916,1.5834815553657452e-05,2.013874495811963e-05,0.001762077124845459,1.1066726376574307,-0.17661667606590523,-9.233726677194046,-0.01113436812005688,-33.744621334748224,0.016340505991588657
0.5820000000000004,align gripper center to object center using joint1/joint2 only,0,0.00010848221046127488,0.08,-0.3505430119280734,-0.3287302471950852,0.054999535953587836,0.3031785509401198,9.746591725431717e-05,-0.00010164807540768923,1.1077654006060815e-05,-1.5148722338094568e-05,-1.750470889619485e-07,2.410854573809425e-05,1.1077654006060815e-05,1.5148722338094568e-05,3.836994224974746e-06,0.00023497490323883436,0.00023373485656720904,1.8766944523674615e-05,2.410854573809425e-05,0.0019849003899873106,1.2325519792570265,-0.17866786268383356,-9.231696214513596,-0.012097752738789392,-33.74565943534252,0.017750445109015953
0.5840000000000004,align gripper center to object center using joint1/joint2 only,0,0.00010891269174619345,0.08,-0.3505429964256076,-0.32873026217809126,0.05499959404558677,0.30317853720145577,0.00011971768067493206,-0.00012421064289997352,1.2909494905111822e-05,-1.7825140938094003e-05,-1.9843954587077122e-07,2.8543877431162833e-05,1.2909494905111822e-05,1.7825140938094003e-05,4.542899188178756e-06,0.0002725572836437857,0.00027105851753537243,2.2008877939777457e-05,2.8543877431162833e-05,0.002217665846534292,1.3621726734389858,-0.1776790344233493,-9.229669826999643,-0.013096161466435333,-33.74673355378698,0.01917902008115426
0.5860000000000004,align gripper center to object center using joint1/joint2 only,0,0.00010779164857847013,0.08,-0.35054299579460296,-0.3287302471604281,0.05499956858415199,0.30317855222292345,0.00014534035028500683,-0.0001500150253633684,1.4903558691274011e-05,-2.0777071961493125e-05,-2.2314022433166696e-07,3.346314217901391e-05,1.4903558691274011e-05,2.0777071961493125e-05,5.325824489176961e-06,0.0003133425165196042,0.00031155055893762335,2.5569567476930713e-05,3.346314217901391e-05,0.002459632373925539,1.4949910247143234,-0.17345505495454533,-9.22764855341575,-0.014129642349130896,-33.74784115510545,0.02062238684759133
0.5880000000000004,align gripper center to object center using joint1/joint2 only,0,0.00010837493374085909,0.08,-0.3505429955646111,-0.3287302316000988,0.05499954891966968,0.30317856775440405,0.00017459703492606732,-0.00017927737275056735,1.7062440907702577e-05,-2.401248477995459e-05,-2.491289048678345e-07,3.888322431614952e-05,1.7062440907702577e-05,2.401248477995459e-05,6.1884573532661775e-06,0.0003573782089070174,0.00035525663831710135,2.945719462264513e-05,3.888322431614952e-05,0.0027100410685678023,1.630505149304449,-0.1658769609623567,-9.225633613150853,-0.01519778643406911,-33.748980342773265,0.022076825950278916
0.5900000000000004,align gripper center to object center using joint1/joint2 only,0,0.00010834151052507,0.08,-0.35054299544638656,-0.32873021608051084,0.0549995335773547,0.303178583236618,0.00020774938360859762,-0.00021220668101456852,1.9388719777918635e-05,-2.7538478384374143e-05,-2.7639390024125284e-07,4.481947693682341e-05,1.9388719777918635e-05,2.7538478384374143e-05,7.1332413012886455e-06,0.0004047108130527129,0.00040222140257437506,3.367922573862551e-05,4.481947693682341e-05,0.002968126310336944,1.7682848136242848,-0.15491811063041405,-9.223626621595805,-0.01629961175742104,-33.75014988383378,0.023538859729442228
0.5920000000000004,align gripper center to object center using joint1/joint2 only,0,0.00010830399454813578,0.08,-0.3505429954290845,-0.32873020060955555,0.05499952149048025,0.30317859866253666,0.00024505703741469506,-0.000249004432794122,2.1885004887561457e-05,-3.136131943658037e-05,-3.049293880045117e-07,5.128573322518812e-05,2.1885004887561457e-05,3.136131943658037e-05,8.162377952880941e-06,0.0004553861133556202,0.0004524889897054873,3.824246063908313e-05,5.128573322518812e-05,0.0032331281441823558,1.9079933166769316,-0.14064904900992425,-9.221629710719043,-0.017433503431884524,-33.75134917668526,0.02500535670477104
0.5940000000000004,align gripper center to object center using joint1/joint2 only,0,0.00010826873020757144,0.08,-0.35054299550743745,-0.32873018518508923,0.05499951185616079,0.30317861403470486,0.0002867774490471072,-0.00028986471065467007,2.4553951516579606e-05,-3.5486490263140264e-05,-3.347318356156296e-07,5.8294342201940187e-05,2.4553951516579606e-05,3.5486490263140264e-05,9.277832715729263e-06,0.0005094492203216765,0.0005061030307690393,4.3153070878843496e-05,5.8294342201940187e-05,0.003504304488376032,2.0493956560418796,-0.12322894196063996,-9.21964550618517,-0.018597237601384486,-33.75257815320242,0.026473600092078015
0.5960000000000004,align gripper center to object center using joint1/joint2 only,0,0.00010823551551428965,0.08,-0.3505429956765908,-0.32873016980500497,0.054999504070084276,0.30317862935559886,0.00033316601775121285,-0.0003349747023000869,2.7398243014234588e-05,-3.991874185852494e-05,-3.6579614390227616e-07,6.585622548452655e-05,2.7398243014234588e-05,3.991874185852494e-05,1.048134381923685e-05,0.0005669441615046434,0.000563106242044194,4.841662598565296e-05,6.585622548452655e-05,0.003780941641293182,2.1923513966970614,-0.1028854873741849,-9.217676956618892,-0.019788091821458076,-33.75383712280857,0.027941306628812296
0.5980000000000004,align gripper center to object center using joint1/joint2 only,0,0.00010820408671911973,0.08,-0.35054299593198424,-0.3287301544673875,0.05499949767736933,0.30317864462748084,0.0003844764507075416,-0.00038451547411403816,3.042054840552805e-05,-4.466214718515635e-05,-3.9811213847870314e-07,7.398094938099842e-05,3.042054840552805e-05,4.466214718515635e-05,1.1774433788617194e-05,0.0006279132032465373,0.0006235397420694317,5.403810837253322e-05,7.398094938099842e-05,0.004062361948235939,2.3367952187283554,-0.07988830549170792,-9.215727061755805,-0.02100301802410787,-33.755126581734096,0.029406595999482064
0.6000000000000004,align gripper center to object center using joint1/joint2 only,0,0.00010817422484126945,0.08,-0.35054299626932955,-0.32873013917049354,0.054999492335586805,0.3031786598524208,0.0004409612483650111,-0.00043866287670132344,3.3623465238569633e-05,-4.97201511492955e-05,-4.316618949779909e-07,8.26768056562805e-05,3.3623465238569633e-05,4.97201511492955e-05,1.3158422299245015e-05,0.0006923960481472278,0.0006874422399710188,6.002191970403888e-05,8.26768056562805e-05,0.004347928137641042,2.482711015524489,-0.05452175743326376,-9.213798578721256,-0.02223883856698204,-33.75644701945212,0.030867923868925055
